; generated by PrusaSlicer 2.1.1+win64 on 2020-01-29 at 02:51:36 UTC

; 

; external perimeters extrusion width = 0.45mm
; perimeters extrusion width = 0.45mm
; infill extrusion width = 0.45mm
; solid infill extrusion width = 0.45mm
; top infill extrusion width = 0.40mm
; first layer extrusion width = 0.42mm

M73 P0 R40
M73 Q0 S40
M201 X1000 Y1000 Z1000 E5000 ; sets maximum accelerations, mm/sec^2
M203 X200 Y200 Z12 E120 ; sets maximum feedrates, mm/sec
M204 P1250 R1250 T1250 ; sets acceleration (P, T) and retract acceleration (R), mm/sec^2
M205 X8.00 Y8.00 Z0.40 E1.50 ; sets the jerk limits, mm/sec
M205 S0 T0 ; sets the minimum extruding and travel feed rate, mm/sec
M107
M862.3 P "MK3" ; printer model check
M862.1 P0.4 ; nozzle diameter check
M115 U3.8.1 ; tell printer latest fw version
G90 ; use absolute coordinates
M83 ; extruder relative mode
M104 S215 ; set extruder temp
M140 S60 ; set bed temp
M190 S60 ; wait for bed temp
M109 S215 ; wait for extruder temp
G28 W ; home all without mesh bed level
G80 ; mesh bed leveling
G1 Y-3.0 F1000.0 ; go outside print area
G92 E0.0
G1 X60.0 E9.0 F1000.0 ; intro line
M73 Q0 S40
M73 P0 R40
G1 X100.0 E12.5 F1000.0 ; intro line
G92 E0.0
M221 S95
G21 ; set units to millimeters
G90 ; use absolute coordinates
M83 ; use relative distances for extrusion
M900 K30 ; Filament gcode
;BEFORE_LAYER_CHANGE
G92 E0.0
;0.2


G1 E-0.80000 F2100.00000
G1 Z0.600 F10800.000
;AFTER_LAYER_CHANGE
;0.2
G1 X63.985 Y91.626
G1 Z0.200
G1 E0.80000 F2100.00000
M204 S1000
G1 F1200
G1 X63.121 Y89.933 E0.05958
G1 X62.817 Y88.154 E0.05661
G1 X62.816 Y85.865 E0.07176
G1 X63.051 Y84.328 E0.04875
G1 X63.221 Y83.820 E0.01680
G1 X63.991 Y82.366 E0.05159
G1 X65.151 Y81.168 E0.05228
G1 X65.632 Y80.826 E0.01851
G1 X67.108 Y80.108 E0.05147
G1 X68.846 Y79.817 E0.05525
G1 X181.004 Y79.811 E3.51661
G1 X182.870 Y80.101 E0.05923
G1 X184.390 Y80.838 E0.05295
G1 X184.896 Y81.214 E0.01976
G1 X185.854 Y82.175 E0.04258
G1 X186.152 Y82.590 E0.01601
G1 X186.890 Y84.101 E0.05273
G1 X187.182 Y85.828 E0.05491
G1 X187.178 Y88.212 E0.07473
G1 X186.946 Y89.686 E0.04681
G1 X186.756 Y90.226 E0.01794
G1 X186.022 Y91.617 E0.04931
G1 X160.207 Y127.703 E1.39117
G1 X159.085 Y128.844 E0.05017
G1 X158.605 Y129.181 E0.01839
G1 X157.142 Y129.892 E0.05101
G1 X155.404 Y130.183 E0.05525
G1 X153.067 Y130.181 E0.07325
G1 X151.183 Y129.829 E0.06009
G1 X66.861 Y93.798 E2.87514
G1 X65.330 Y92.983 E0.05436
G1 X64.027 Y91.668 E0.05803
G1 F8640
G1 X63.121 Y89.933 E-0.45195
G1 X62.896 Y88.618 E-0.30805
G1 E-0.04000 F2100.00000
G1 Z0.800 F10800.000
G1 X152.131 Y121.979
G1 Z0.200
G1 E0.80000 F2100.00000
G1 F1200
G1 X152.783 Y121.161 E0.03282
G1 X153.727 Y120.707 E0.03282
G1 X154.773 Y120.707 E0.03282
G1 X155.717 Y121.161 E0.03282
G1 X156.369 Y121.979 E0.03282
G1 X156.602 Y123.000 E0.03282
G1 X156.369 Y124.021 E0.03282
G1 X155.717 Y124.839 E0.03282
G1 X154.773 Y125.293 E0.03282
G1 X153.727 Y125.293 E0.03282
G1 X152.783 Y124.839 E0.03282
G1 X152.131 Y124.021 E0.03282
G1 X151.898 Y123.000 E0.03282
G1 X152.117 Y122.038 E0.03094
G1 X152.479 Y122.147 F10800.000
G1 F1200
G1 X153.025 Y121.463 E0.02743
G1 X153.813 Y121.084 E0.02743
G1 X154.687 Y121.084 E0.02743
G1 X155.475 Y121.463 E0.02743
G1 X156.021 Y122.147 E0.02743
G1 X156.215 Y123.000 E0.02743
G1 X156.021 Y123.853 E0.02743
G1 X155.475 Y124.537 E0.02743
G1 X154.687 Y124.916 E0.02743
G1 X153.813 Y124.916 E0.02743
G1 X153.025 Y124.537 E0.02743
G1 X152.479 Y123.853 E0.02743
G1 X152.285 Y123.000 E0.02743
G1 X152.466 Y122.206 E0.02554
G1 X152.254 Y121.817 F10800.000
G1 F8640
G1 X153.025 Y121.463 E-0.21453
G1 X153.813 Y121.084 E-0.20197
G1 X154.687 Y121.084 E-0.20197
G1 X155.240 Y121.350 E-0.14153
G1 E-0.04000 F2100.00000
G1 Z0.800 F10800.000
G1 X176.783 Y88.839
G1 Z0.200
G1 E0.80000 F2100.00000
G1 F1200
G1 X176.131 Y88.021 E0.03282
G1 X175.898 Y87.000 E0.03282
G1 X176.131 Y85.979 E0.03282
G1 X176.783 Y85.161 E0.03282
G1 X177.727 Y84.707 E0.03282
G1 X178.773 Y84.707 E0.03282
G1 X179.717 Y85.161 E0.03282
G1 X180.369 Y85.979 E0.03282
G1 X180.602 Y87.000 E0.03282
G1 X180.369 Y88.021 E0.03282
G1 X179.717 Y88.839 E0.03282
G1 X178.773 Y89.293 E0.03282
G1 X177.727 Y89.293 E0.03282
G1 X176.837 Y88.865 E0.03094
G1 X177.025 Y88.537 F10800.000
G1 F1200
G1 X176.479 Y87.853 E0.02742
G1 X176.285 Y87.000 E0.02743
G1 X176.479 Y86.147 E0.02743
G1 X177.025 Y85.463 E0.02742
G1 X177.813 Y85.084 E0.02743
G1 X178.687 Y85.084 E0.02743
G1 X179.475 Y85.463 E0.02743
G1 X180.021 Y86.147 E0.02742
G1 X180.215 Y87.000 E0.02743
G1 X180.021 Y87.853 E0.02743
G1 X179.475 Y88.537 E0.02742
G1 X178.687 Y88.916 E0.02743
G1 X177.813 Y88.916 E0.02743
G1 X177.079 Y88.563 E0.02554
G1 X176.652 Y88.683 F10800.000
G1 F8640
G1 X176.479 Y87.853 E-0.21453
G1 X176.285 Y87.000 E-0.20197
G1 X176.479 Y86.147 E-0.20197
G1 X176.861 Y85.668 E-0.14153
G1 E-0.04000 F2100.00000
G1 Z0.800 F10800.000
G1 X102.602 Y87.000
G1 Z0.200
G1 E0.80000 F2100.00000
G1 F1200
G1 X102.369 Y88.021 E0.03282
G1 X101.717 Y88.839 E0.03282
G1 X100.773 Y89.293 E0.03282
G1 X99.727 Y89.293 E0.03282
G1 X98.811 Y88.852 E0.03187
G1 X98.132 Y88.025 E0.03356
G1 X97.898 Y87.000 E0.03296
G1 X98.131 Y85.979 E0.03282
G1 X98.783 Y85.161 E0.03282
G1 X99.727 Y84.707 E0.03282
G1 X100.773 Y84.707 E0.03282
G1 X101.689 Y85.148 E0.03187
G1 X102.368 Y85.975 E0.03356
G1 X102.589 Y86.942 E0.03108
G1 X102.215 Y87.000 F10800.000
G1 F1200
G1 X102.021 Y87.853 E0.02743
G1 X101.475 Y88.537 E0.02743
G1 X100.687 Y88.916 E0.02743
G1 X99.813 Y88.916 E0.02743
G1 X99.049 Y88.549 E0.02656
G1 X98.480 Y87.854 E0.02816
G1 X98.285 Y87.000 E0.02747
G1 X98.479 Y86.147 E0.02743
G1 X99.025 Y85.463 E0.02743
G1 X99.813 Y85.084 E0.02743
G1 X100.687 Y85.084 E0.02743
G1 X101.451 Y85.451 E0.02656
G1 X102.020 Y86.146 E0.02816
G1 X102.202 Y86.942 E0.02559
G1 X102.562 Y87.199 F10800.000
G1 F8640
G1 X102.021 Y87.853 E-0.21453
G1 X101.475 Y88.537 E-0.20197
G1 X100.687 Y88.916 E-0.20197
G1 X100.074 Y88.916 E-0.14153
G1 E-0.04000 F2100.00000
G1 Z0.800 F10800.000
G1 X74.102 Y87.000
G1 Z0.200
G1 E0.80000 F2100.00000
G1 F1200
G1 X73.869 Y88.021 E0.03282
G1 X73.217 Y88.839 E0.03282
G1 X72.273 Y89.293 E0.03282
G1 X71.227 Y89.293 E0.03282
G1 X70.283 Y88.839 E0.03282
G1 X69.631 Y88.021 E0.03282
G1 X69.398 Y87.000 E0.03282
G1 X69.631 Y85.979 E0.03282
G1 X70.283 Y85.161 E0.03282
G1 X71.227 Y84.707 E0.03282
G1 X72.273 Y84.707 E0.03282
G1 X73.217 Y85.161 E0.03282
G1 X73.869 Y85.979 E0.03282
G1 X74.089 Y86.942 E0.03094
G1 X73.715 Y87.000 F10800.000
G1 F1200
G1 X73.521 Y87.853 E0.02743
G1 X72.975 Y88.537 E0.02743
G1 X72.187 Y88.916 E0.02743
G1 X71.313 Y88.916 E0.02743
G1 X70.525 Y88.537 E0.02743
G1 X69.979 Y87.853 E0.02743
G1 X69.785 Y87.000 E0.02743
G1 X69.979 Y86.147 E0.02743
G1 X70.525 Y85.463 E0.02743
G1 X71.313 Y85.084 E0.02743
G1 X72.187 Y85.084 E0.02743
G1 X72.975 Y85.463 E0.02743
G1 X73.521 Y86.147 E0.02743
G1 X73.702 Y86.942 E0.02554
G1 X74.062 Y87.200 F10800.000
G1 F8640
G1 X73.521 Y87.853 E-0.21453
G1 X72.975 Y88.537 E-0.20197
G1 X72.187 Y88.916 E-0.20197
G1 X71.574 Y88.916 E-0.14153
G1 E-0.04000 F2100.00000
G1 Z0.800 F10800.000
G1 X67.948 Y82.761
G1 Z0.200
G1 E0.80000 F2100.00000
G1 F1200
G1 X69.046 Y82.587 E0.03488
G1 X180.954 Y82.587 E3.50878
G1 X182.014 Y82.755 E0.03366
G1 X183.004 Y83.247 E0.03465
G1 X183.755 Y83.998 E0.03331
G1 X184.239 Y84.948 E0.03341
G1 X184.413 Y86.046 E0.03487
G1 X184.413 Y87.954 E0.05981
G1 X184.239 Y89.052 E0.03487
G1 X183.755 Y90.002 E0.03341
G1 X183.002 Y90.755 E0.03341
G1 X182.052 Y91.239 E0.03341
G1 X180.954 Y91.413 E0.03488
G1 X167.221 Y91.413 E0.43058
G1 X165.574 Y91.575 E0.05189
G1 X163.963 Y92.064 E0.05280
G1 X162.478 Y92.858 E0.05280
G1 X161.176 Y93.926 E0.05280
G1 X160.107 Y95.229 E0.05286
G1 X159.298 Y96.765 E0.05441
G1 X158.825 Y98.324 E0.05110
G1 X158.663 Y99.971 E0.05189
G1 X158.663 Y123.954 E0.75196
G1 X158.489 Y125.052 E0.03487
G1 X158.005 Y126.002 E0.03341
G1 X157.252 Y126.755 E0.03341
G1 X156.302 Y127.239 E0.03341
G1 X155.204 Y127.413 E0.03488
G1 X153.296 Y127.413 E0.05981
G1 X152.198 Y127.239 E0.03488
G1 X151.248 Y126.755 E0.03341
G1 X150.495 Y126.002 E0.03341
G1 X150.011 Y125.052 E0.03341
G1 X149.837 Y123.954 E0.03487
G1 X149.837 Y99.971 E0.75196
G1 X149.675 Y98.324 E0.05189
G1 X149.186 Y96.711 E0.05286
G1 X148.358 Y95.186 E0.05441
G1 X147.324 Y93.926 E0.05110
G1 X146.022 Y92.858 E0.05280
G1 X144.537 Y92.064 E0.05280
G1 X142.926 Y91.575 E0.05280
G1 X141.279 Y91.413 E0.05189
G1 X69.046 Y91.413 E2.26480
G1 X67.948 Y91.239 E0.03488
G1 X66.998 Y90.755 E0.03341
G1 X66.245 Y90.002 E0.03341
G1 X65.761 Y89.052 E0.03341
G1 X65.587 Y87.954 E0.03488
G1 X65.587 Y86.046 E0.05981
G1 X65.761 Y84.948 E0.03488
G1 X66.245 Y83.998 E0.03341
G1 X66.998 Y83.245 E0.03341
G1 X67.894 Y82.788 E0.03153
G1 X67.830 Y82.398 F10800.000
G1 F1200
G1 X69.017 Y82.210 E0.03768
G1 X180.983 Y82.210 E3.51064
G1 X182.130 Y82.392 E0.03640
G1 X183.227 Y82.937 E0.03840
G1 X184.064 Y83.774 E0.03712
G1 X184.602 Y84.830 E0.03715
G1 X184.790 Y86.017 E0.03768
G1 X184.790 Y87.983 E0.06167
G1 X184.602 Y89.170 E0.03768
G1 X184.064 Y90.226 E0.03715
G1 X183.226 Y91.064 E0.03715
G1 X182.170 Y91.602 E0.03715
G1 X180.983 Y91.790 E0.03768
G1 X167.240 Y91.790 E0.43093
G1 X165.648 Y91.947 E0.05014
G1 X164.108 Y92.414 E0.05047
G1 X162.688 Y93.173 E0.05047
G1 X161.444 Y94.194 E0.05047
G1 X160.422 Y95.439 E0.05049
G1 X159.649 Y96.908 E0.05208
G1 X159.197 Y98.398 E0.04881
G1 X159.040 Y99.990 E0.05014
G1 X159.040 Y123.983 E0.75231
G1 X158.852 Y125.170 E0.03768
G1 X158.314 Y126.226 E0.03715
G1 X157.476 Y127.064 E0.03715
G1 X156.420 Y127.602 E0.03715
G1 X155.233 Y127.790 E0.03768
G1 X153.267 Y127.790 E0.06167
G1 X152.080 Y127.602 E0.03768
G1 X151.024 Y127.064 E0.03715
G1 X150.186 Y126.226 E0.03715
G1 X149.648 Y125.170 E0.03715
G1 X149.460 Y123.983 E0.03768
G1 X149.460 Y99.990 E0.75231
G1 X149.303 Y98.398 E0.05014
G1 X148.836 Y96.857 E0.05049
G1 X148.044 Y95.397 E0.05208
G1 X147.056 Y94.194 E0.04881
G1 X145.812 Y93.173 E0.05047
G1 X144.392 Y92.414 E0.05047
G1 X142.852 Y91.947 E0.05047
G1 X141.260 Y91.790 E0.05014
G1 X69.017 Y91.790 E2.26515
G1 X67.830 Y91.602 E0.03768
G1 X66.774 Y91.064 E0.03715
G1 X65.936 Y90.226 E0.03715
G1 X65.398 Y89.170 E0.03715
G1 X65.210 Y87.983 E0.03768
G1 X65.210 Y86.017 E0.06167
G1 X65.398 Y84.830 E0.03768
G1 X65.936 Y83.774 E0.03715
G1 X66.774 Y82.936 E0.03715
G1 X67.776 Y82.425 E0.03527
G1 X68.127 Y82.666 F10800.000
G1 F8640
G1 X69.017 Y82.210 E-0.29068
G1 X71.049 Y82.210 E-0.46932
G1 E-0.04000 F2100.00000
G1 Z0.800 F10800.000
G1 X69.304 Y87.859
G1 Z0.200
G1 E0.80000 F2100.00000
G1 F1200
G1 X66.185 Y84.739 E0.13838
M73 Q2 S39
G1 X66.365 Y84.386 E0.01244
G1 X69.146 Y87.167 E0.12339
G1 X69.108 Y87.000 E0.00539
G1 X69.183 Y86.671 E0.01059
G1 X66.578 Y84.065 E0.11558
G1 X66.844 Y83.799 E0.01183
G1 X69.282 Y86.236 E0.10815
G1 X69.369 Y85.854 E0.01232
G1 X69.398 Y85.818 E0.00141
G1 X67.111 Y83.532 E0.10144
M73 P2 R39
G1 X67.167 Y83.476 E0.00246
G1 X67.447 Y83.334 E0.00986
G1 X69.634 Y85.522 E0.09706
G1 X69.871 Y85.225 E0.01191
G1 X67.800 Y83.154 E0.09188
G1 X68.036 Y83.033 E0.00831
G1 X68.189 Y83.009 E0.00486
G1 X70.110 Y84.931 E0.08524
G1 X70.470 Y84.757 E0.01254
G1 X68.650 Y82.936 E0.08078
G1 X69.117 Y82.870 E0.01480
G1 X70.831 Y84.584 E0.07603
G1 X71.162 Y84.424 E0.01154
G1 X71.204 Y84.424 E0.00133
G1 X69.650 Y82.870 E0.06895
G1 X70.184 Y82.870 E0.01674
G1 X71.738 Y84.424 E0.06895
G1 X72.272 Y84.424 E0.01674
G1 X70.717 Y82.870 E0.06895
G1 X71.251 Y82.870 E0.01674
G1 X79.511 Y91.130 E0.36646
G1 X80.045 Y91.130 E0.01674
G1 X71.784 Y82.870 E0.36646
G1 X72.318 Y82.870 E0.01674
G1 X80.578 Y91.130 E0.36646
G1 X81.112 Y91.130 E0.01674
G1 X72.852 Y82.870 E0.36646
G1 X73.385 Y82.870 E0.01674
G1 X81.645 Y91.130 E0.36646
G1 X82.179 Y91.130 E0.01674
G1 X73.919 Y82.870 E0.36646
G1 X74.452 Y82.870 E0.01674
G1 X82.712 Y91.130 E0.36646
G1 X83.246 Y91.130 E0.01674
G1 X74.986 Y82.870 E0.36646
G1 X75.519 Y82.870 E0.01674
G1 X83.779 Y91.130 E0.36646
G1 X84.313 Y91.130 E0.01674
G1 X76.053 Y82.870 E0.36646
G1 X76.586 Y82.870 E0.01674
G1 X84.847 Y91.130 E0.36646
G1 X85.380 Y91.130 E0.01674
G1 X77.120 Y82.870 E0.36646
G1 X77.653 Y82.870 E0.01674
G1 X85.914 Y91.130 E0.36646
G1 X86.447 Y91.130 E0.01674
G1 X78.187 Y82.870 E0.36646
G1 X78.720 Y82.870 E0.01674
G1 X86.981 Y91.130 E0.36646
G1 X87.514 Y91.130 E0.01674
G1 X79.254 Y82.870 E0.36646
G1 X79.787 Y82.870 E0.01674
G1 X88.048 Y91.130 E0.36646
G1 X88.581 Y91.130 E0.01674
G1 X80.321 Y82.870 E0.36646
G1 X80.855 Y82.870 E0.01674
G1 X89.115 Y91.130 E0.36646
G1 X89.648 Y91.130 E0.01674
G1 X81.388 Y82.870 E0.36646
G1 X81.922 Y82.870 E0.01674
G1 X90.182 Y91.130 E0.36646
G1 X90.715 Y91.130 E0.01674
G1 X82.455 Y82.870 E0.36646
G1 X82.989 Y82.870 E0.01674
G1 X91.249 Y91.130 E0.36646
G1 X91.783 Y91.130 E0.01674
G1 X83.522 Y82.870 E0.36646
G1 X84.056 Y82.870 E0.01674
G1 X92.316 Y91.130 E0.36646
G1 X92.850 Y91.130 E0.01674
G1 X84.589 Y82.870 E0.36646
G1 X85.123 Y82.870 E0.01674
G1 X93.383 Y91.130 E0.36646
G1 X93.917 Y91.130 E0.01674
G1 X85.656 Y82.870 E0.36646
G1 X86.190 Y82.870 E0.01674
G1 X94.450 Y91.130 E0.36646
G1 X94.984 Y91.130 E0.01674
G1 X86.723 Y82.870 E0.36646
G1 X87.257 Y82.870 E0.01674
G1 X95.517 Y91.130 E0.36646
G1 X96.051 Y91.130 E0.01674
G1 X87.791 Y82.870 E0.36646
G1 X88.324 Y82.870 E0.01674
G1 X96.584 Y91.130 E0.36646
G1 X97.118 Y91.130 E0.01674
G1 X88.858 Y82.870 E0.36646
G1 X89.391 Y82.870 E0.01674
G1 X97.651 Y91.130 E0.36646
G1 X98.185 Y91.130 E0.01674
G1 X89.925 Y82.870 E0.36646
G1 X90.458 Y82.870 E0.01674
G1 X98.719 Y91.130 E0.36646
G1 X99.252 Y91.130 E0.01674
G1 X90.992 Y82.870 E0.36646
G1 X91.525 Y82.870 E0.01674
G1 X99.786 Y91.130 E0.36646
G1 X100.319 Y91.130 E0.01674
G1 X92.059 Y82.870 E0.36646
G1 X92.592 Y82.870 E0.01674
G1 X101.022 Y91.300 E0.37399
G1 F8640
G1 X98.695 Y88.972 E-0.76000
G1 E-0.04000 F2100.00000
G1 Z0.800 F10800.000
G1 X99.627 Y89.371
G1 Z0.200
G1 E0.80000 F2100.00000
G1 F1200
G1 X101.386 Y91.130 E0.07806
G1 X101.920 Y91.130 E0.01674
G1 X100.366 Y89.576 E0.06895
G1 X100.838 Y89.576 E0.01482
G1 X100.879 Y89.556 E0.00144
G1 X102.453 Y91.130 E0.06983
G1 X102.987 Y91.130 E0.01674
G1 X101.239 Y89.383 E0.07752
G1 X101.599 Y89.209 E0.01254
G1 X103.520 Y91.130 E0.08522
G1 X104.054 Y91.130 E0.01674
G1 X101.938 Y89.015 E0.09386
G1 X102.175 Y88.718 E0.01191
G1 X104.587 Y91.130 E0.10702
G1 X105.121 Y91.130 E0.01674
G1 X102.412 Y88.421 E0.12019
G1 X102.631 Y88.146 E0.01101
G1 X102.638 Y88.114 E0.00105
G1 X105.655 Y91.130 E0.13382
G1 X106.188 Y91.130 E0.01674
G1 X102.737 Y87.679 E0.15309
G1 X102.836 Y87.245 E0.01398
G1 X106.722 Y91.130 E0.17236
G1 X107.255 Y91.130 E0.01674
G1 X102.823 Y86.698 E0.19661
G1 X102.666 Y86.007 E0.02224
G1 X107.958 Y91.300 E0.23481
G1 F8640
G1 X105.631 Y88.972 E-0.76000
G1 E-0.04000 F2100.00000
G1 Z0.800 F10800.000
G1 X97.937 Y87.681
G1 Z0.200
G1 E0.80000 F2100.00000
G1 F1200
G1 X93.126 Y82.870 E0.21345
G1 X93.659 Y82.870 E0.01674
G1 X97.642 Y86.852 E0.17666
G1 X97.741 Y86.418 E0.01398
G1 X94.193 Y82.870 E0.15739
G1 X94.727 Y82.870 E0.01674
G1 X97.840 Y85.983 E0.13812
G1 X97.869 Y85.854 E0.00417
G1 X98.036 Y85.645 E0.00836
G1 X95.260 Y82.870 E0.12313
G1 X95.794 Y82.870 E0.01674
G1 X98.272 Y85.348 E0.10996
G1 X98.509 Y85.052 E0.01191
G1 X96.327 Y82.870 E0.09679
G1 X96.861 Y82.870 E0.01674
G1 X98.820 Y84.829 E0.08693
G1 X99.180 Y84.656 E0.01254
G1 X97.394 Y82.870 E0.07924
G1 X97.928 Y82.870 E0.01674
G1 X99.540 Y84.483 E0.07155
G1 X99.662 Y84.424 E0.00423
G1 X100.015 Y84.424 E0.01109
G1 X98.461 Y82.870 E0.06895
G1 X98.995 Y82.870 E0.01674
G1 X100.549 Y84.424 E0.06895
G1 X100.838 Y84.424 E0.00906
G1 X101.310 Y84.651 E0.01643
G1 X99.528 Y82.870 E0.07903
G1 X100.062 Y82.870 E0.01674
G1 X108.322 Y91.130 E0.36646
G1 X108.856 Y91.130 E0.01674
G1 X100.595 Y82.870 E0.36646
G1 X101.129 Y82.870 E0.01674
G1 X109.389 Y91.130 E0.36646
G1 X109.923 Y91.130 E0.01674
G1 X101.663 Y82.870 E0.36646
G1 X102.196 Y82.870 E0.01674
G1 X110.456 Y91.130 E0.36646
G1 X110.990 Y91.130 E0.01674
G1 X102.730 Y82.870 E0.36646
G1 X103.263 Y82.870 E0.01674
G1 X111.523 Y91.130 E0.36646
G1 X112.057 Y91.130 E0.01674
G1 X103.797 Y82.870 E0.36646
G1 X104.330 Y82.870 E0.01674
