; generated by Slic3r 1.3.0 on 2020-01-28 at 22:37:44

; external perimeters extrusion width = 0.35mm (3.68mm^3/s)
; perimeters extrusion width = 0.35mm (4.30mm^3/s)
; infill extrusion width = 0.35mm (4.91mm^3/s)
; solid infill extrusion width = 0.35mm (3.07mm^3/s)
; top infill extrusion width = 0.35mm (2.46mm^3/s)
; support material extrusion width = 0.35mm (1.84mm^3/s)

M107
M190 S108 ; set bed temperature and wait for it to be reached
; start of custom G-code
M108 S255 ; turn on M2 fans
M201 X400 Y400 Z400 ; reduce max accel to reduce ringing
G28 ; home all axes
G1 Y50 Z0.3 F9600 ; move forward to avoid clips
G1 X205 Z 10 ; move off platform
M109 S 250 ; wait for hotend to reach temp
G1 Z0.4; position nozzle
G92 E0; zero extruder
G1 F225 E25 ; extrude
G92 E0 ; zero extruder
G1 X190 Z0.1 E1.0 F1200 ; slow wipe
G1 X180 Z0.25 ; lift
; end of custom G-code
; Filament gcode

G21 ; set units to millimeters
G90 ; use absolute coordinates
M82 ; use absolute distances for extrusion
G92 E0
G1 Z0.350 F6000.000
G1 E-1.00000 F1200.00000
G92 E0
G1 X62.791 Y60.203 F6000.000
G1 E1.10000 F1200.00000
M201 X500 Y500
M204 P500 T500
G1 F1500
G1 X63.845 Y59.352 E1.24025
G1 X66.162 Y57.953 E1.52071
G1 X67.406 Y57.417 E1.66096
G1 X70.014 Y56.690 E1.94143
G1 X71.356 Y56.507 E2.08172
G1 X72.709 Y56.415 E2.22224
G1 X129.719 Y56.415 E8.12801
G1 X131.073 Y56.507 E8.26857
G1 X132.414 Y56.690 E8.40882
G1 X135.023 Y57.417 E8.68928
G1 X136.222 Y57.934 E8.82462
G1 X138.584 Y59.353 E9.10996
G1 X139.637 Y60.203 E9.25022
G1 X141.494 Y62.173 E9.53066
G1 X142.282 Y63.275 E9.67099
G1 X143.208 Y64.863 E9.86149
G1 X144.730 Y68.130 E10.23479
G1 X145.096 Y69.027 E10.33511
G1 X146.295 Y72.425 E10.70841
G1 X146.572 Y73.353 E10.80872
G1 X147.436 Y76.851 E11.18204
G1 X147.623 Y77.801 E11.28234
G1 X148.145 Y81.367 E11.65564
G1 X148.238 Y82.331 E11.75596
G1 X148.413 Y85.930 E12.12927
G1 X149.196 Y150.503 E18.81894
G1 X149.154 Y152.104 E18.98484
G1 X148.858 Y155.924 E19.38175
G1 X148.726 Y156.945 E19.48837
G1 X148.039 Y160.714 E19.88524
G1 X147.803 Y161.716 E19.99189
G1 X146.732 Y165.395 E20.38878
G1 X146.394 Y166.367 E20.49541
G1 X144.951 Y169.916 E20.89228
G1 X144.514 Y170.848 E20.99893
G1 X142.714 Y174.230 E21.39583
G1 X142.184 Y175.113 E21.50245
G1 X140.045 Y178.291 E21.89933
G1 X139.427 Y179.115 E22.00597
G1 X136.973 Y182.057 E22.40285
G1 X136.274 Y182.812 E22.50950
G1 X133.530 Y185.486 E22.90637
G1 X132.757 Y186.166 E23.01302
G1 X129.752 Y188.543 E23.40989
G1 X128.913 Y189.140 E23.51654
G1 X125.681 Y191.196 E23.91343
G1 X124.785 Y191.703 E24.02006
G1 X121.358 Y193.416 E24.41694
G1 X120.415 Y193.828 E24.52358
G1 X116.830 Y195.180 E24.92046
G1 X115.849 Y195.493 E25.02711
G1 X112.144 Y196.469 E25.42398
G1 X111.136 Y196.679 E25.53063
G1 X107.351 Y197.269 E25.92750
G1 X106.327 Y197.375 E26.03415
G1 X102.500 Y197.572 E26.43105
G1 X101.471 Y197.572 E26.53767
G1 X97.645 Y197.375 E26.93454
G1 X96.621 Y197.269 E27.04119
G1 X92.835 Y196.679 E27.43807
G1 X91.828 Y196.468 E27.54471
G1 X88.123 Y195.493 E27.94159
G1 X87.142 Y195.180 E28.04823
G1 X83.557 Y193.828 E28.44513
G1 X82.614 Y193.416 E28.55176
G1 X79.187 Y191.703 E28.94865
G1 X78.291 Y191.196 E29.05528
G1 X75.058 Y189.140 E29.45215
G1 X74.219 Y188.543 E29.55880
G1 X71.215 Y186.166 E29.95567
G1 X70.442 Y185.486 E30.06232
G1 X67.774 Y182.886 E30.44827
G1 X66.999 Y182.057 E30.56583
G1 X64.545 Y179.115 E30.96271
G1 X63.927 Y178.291 E31.06935
G1 X61.788 Y175.113 E31.46623
G1 X61.258 Y174.230 E31.57287
G1 X59.458 Y170.848 E31.96975
G1 X59.021 Y169.916 E32.07640
G1 X57.578 Y166.367 E32.47328
G1 X57.240 Y165.395 E32.57992
G1 X56.169 Y161.716 E32.97681
G1 X55.932 Y160.714 E33.08344
G1 X55.245 Y156.945 E33.48032
G1 X55.113 Y155.924 E33.58696
G1 X54.818 Y152.104 E33.98385
G1 X54.789 Y151.453 E34.05133
G1 X54.004 Y86.535 E40.77677
G1 X54.015 Y85.930 E40.83944
G1 X54.190 Y82.331 E41.21276
G1 X54.284 Y81.367 E41.31306
G1 X54.805 Y77.801 E41.68637
G1 X54.992 Y76.851 E41.78668
G1 X55.856 Y73.353 E42.15998
G1 X56.134 Y72.425 E42.26029
G1 X57.332 Y69.027 E42.63360
G1 X57.698 Y68.130 E42.73391
G1 X59.220 Y64.863 E43.10722
G1 X60.147 Y63.274 E43.29779
G1 X60.934 Y62.173 E43.43803
G1 X62.755 Y60.241 E43.71306
G1 X63.294 Y60.825 F6000.000
G1 F1500
G1 X64.347 Y59.975 E43.85331
G1 X66.479 Y58.688 E44.11134
G1 X67.722 Y58.151 E44.25158
G1 X70.122 Y57.483 E44.50962
G1 X71.464 Y57.300 E44.64991
G1 X72.709 Y57.215 E44.77918
G1 X129.719 Y57.215 E50.68495
G1 X130.965 Y57.300 E50.81427
G1 X132.306 Y57.483 E50.95452
G1 X134.706 Y58.151 E51.21255
G1 X135.905 Y58.669 E51.34789
G1 X138.081 Y59.975 E51.61079
G1 X139.135 Y60.825 E51.75105
G1 X140.843 Y62.638 E52.00906
G1 X141.631 Y63.740 E52.14938
G1 X142.483 Y65.201 E52.32464
G1 X144.005 Y68.468 E52.69794
G1 X144.342 Y69.293 E52.79023
G1 X145.540 Y72.691 E53.16354
G1 X145.796 Y73.545 E53.25582
G1 X146.660 Y77.043 E53.62914
G1 X146.831 Y77.917 E53.72141
G1 X147.353 Y81.483 E54.09472
G1 X147.439 Y82.370 E54.18701
G1 X147.614 Y85.969 E54.56033
G1 X148.396 Y150.493 E61.24491
G1 X148.357 Y152.043 E61.40548
G1 X148.061 Y155.863 E61.80239
G1 X147.939 Y156.802 E61.90048
G1 X147.253 Y160.571 E62.29735
G1 X147.035 Y161.493 E62.39546
G1 X145.964 Y165.171 E62.79236
G1 X145.653 Y166.066 E62.89046
G1 X144.210 Y169.615 E63.28733
G1 X143.808 Y170.472 E63.38545
G1 X142.008 Y173.854 E63.78234
G1 X141.520 Y174.666 E63.88044
G1 X139.381 Y177.845 E64.27731
G1 X138.813 Y178.602 E64.37543
G1 X136.359 Y181.544 E64.77230
G1 X135.715 Y182.239 E64.87042
G1 X132.972 Y184.913 E65.26729
G1 X132.260 Y185.538 E65.36541
G1 X129.256 Y187.916 E65.76228
G1 X128.484 Y188.465 E65.86040
G1 X125.251 Y190.521 E66.25729
G1 X124.427 Y190.988 E66.35539
G1 X121.000 Y192.701 E66.75226
G1 X120.132 Y193.080 E66.85038
G1 X116.547 Y194.431 E67.24725
G1 X115.645 Y194.719 E67.34537
G1 X111.940 Y195.695 E67.74225
G1 X111.013 Y195.889 E67.84036
G1 X107.228 Y196.478 E68.23723
G1 X106.286 Y196.576 E68.33535
G1 X102.459 Y196.773 E68.73225
G1 X101.512 Y196.773 E68.83034
G1 X97.686 Y196.576 E69.22721
G1 X96.744 Y196.478 E69.32533
G1 X92.959 Y195.889 E69.72221
G1 X92.031 Y195.695 E69.82032
G1 X88.327 Y194.719 E70.21719
G1 X87.424 Y194.431 E70.31531
G1 X83.839 Y193.080 E70.71221
G1 X82.972 Y192.701 E70.81030
G1 X79.544 Y190.988 E71.20720
G1 X78.720 Y190.521 E71.30530
G1 X75.488 Y188.465 E71.70217
G1 X74.716 Y187.916 E71.80029
G1 X71.712 Y185.538 E72.19716
G1 X71.000 Y184.913 E72.29527
G1 X68.332 Y182.313 E72.68121
G1 X67.613 Y181.544 E72.79025
G1 X65.159 Y178.602 E73.18713
G1 X64.590 Y177.845 E73.28524
G1 X62.452 Y174.666 E73.68212
G1 X61.964 Y173.854 E73.78023
G1 X60.164 Y170.472 E74.17711
G1 X59.762 Y169.615 E74.27522
G1 X58.319 Y166.066 E74.67211
G1 X58.008 Y165.171 E74.77021
G1 X56.937 Y161.492 E75.16710
G1 X56.719 Y160.571 E75.26520
G1 X56.032 Y156.802 E75.66208
G1 X55.911 Y155.862 E75.76020
G1 X55.615 Y152.043 E76.15708
G1 X55.588 Y151.444 E76.21917
G1 X54.804 Y86.526 E82.94460
G1 X54.814 Y85.969 E83.00226
G1 X54.989 Y82.369 E83.37558
G1 X55.075 Y81.483 E83.46786
G1 X55.597 Y77.917 E83.84116
G1 X55.768 Y77.043 E83.93345
G1 X56.633 Y73.545 E84.30675
G1 X56.888 Y72.691 E84.39904
G1 X58.087 Y69.293 E84.77234
G1 X58.423 Y68.468 E84.86463
G1 X59.945 Y65.201 E85.23794
G1 X60.798 Y63.739 E85.41326
G1 X61.585 Y62.638 E85.55351
G1 X63.257 Y60.863 E85.80610
G1 X63.796 Y61.448 F6000.000
G1 F1500
G1 X64.849 Y60.597 E85.94635
G1 X66.796 Y59.422 E86.18195
G1 X68.039 Y58.886 E86.32219
G1 X70.230 Y58.275 E86.55779
G1 X71.572 Y58.092 E86.69807
G1 X72.709 Y58.015 E86.81611
G1 X129.719 Y58.015 E92.72188
G1 X130.856 Y58.092 E92.83995
G1 X132.198 Y58.275 E92.98020
G1 X134.389 Y58.886 E93.21580
G1 X135.588 Y59.403 E93.35113
G1 X137.579 Y60.597 E93.59160
G1 X138.632 Y61.448 E93.73186
G1 X140.193 Y63.102 E93.96744
G1 X140.980 Y64.205 E94.10775
G1 X141.758 Y65.539 E94.26777
G1 X143.280 Y68.806 E94.64107
G1 X143.587 Y69.559 E94.72534
G1 X144.786 Y72.957 E95.09864
G1 X145.019 Y73.736 E95.18290
G1 X145.883 Y77.235 E95.55622
G1 X146.040 Y78.033 E95.64047
G1 X146.562 Y81.599 E96.01377
G1 X146.640 Y82.408 E96.09804
G1 X146.815 Y86.008 E96.47136
G1 X147.596 Y150.483 E103.15086
G1 X147.559 Y151.981 E103.30610
G1 X147.263 Y155.801 E103.70301
G1 X147.152 Y156.658 E103.79257
G1 X146.466 Y160.427 E104.18944
G1 X146.267 Y161.269 E104.27902
G1 X145.196 Y164.948 E104.67591
G1 X144.912 Y165.764 E104.76548
G1 X143.469 Y169.313 E105.16236
G1 X143.102 Y170.096 E105.25194
G1 X141.302 Y173.478 E105.64883
G1 X140.856 Y174.220 E105.73840
G1 X138.718 Y177.398 E106.13527
G1 X138.199 Y178.090 E106.22486
G1 X135.744 Y181.032 E106.62173
G1 X135.157 Y181.666 E106.71132
G1 X132.413 Y184.340 E107.10819
G1 X131.764 Y184.911 E107.19778
G1 X128.760 Y187.289 E107.59465
G1 X128.055 Y187.790 E107.68424
G1 X124.822 Y189.846 E108.08112
G1 X124.070 Y190.272 E108.17070
G1 X120.643 Y191.985 E108.56757
G1 X119.850 Y192.331 E108.65716
G1 X116.265 Y193.683 E109.05403
G1 X115.441 Y193.946 E109.14362
G1 X111.737 Y194.921 E109.54049
G1 X110.890 Y195.098 E109.63007
G1 X107.105 Y195.688 E110.02695
G1 X106.244 Y195.777 E110.11654
G1 X102.418 Y195.974 E110.51343
G1 X101.554 Y195.974 E110.60299
G1 X97.727 Y195.777 E110.99987
G1 X96.867 Y195.688 E111.08945
G1 X93.082 Y195.098 E111.48633
G1 X92.235 Y194.921 E111.57591
G1 X88.530 Y193.946 E111.97278
G1 X87.706 Y193.683 E112.06237
G1 X84.121 Y192.331 E112.45927
G1 X83.329 Y191.985 E112.54883
G1 X79.902 Y190.272 E112.94572
G1 X79.150 Y189.846 E113.03529
G1 X75.917 Y187.790 E113.43216
G1 X75.212 Y187.289 E113.52175
G1 X72.208 Y184.911 E113.91862
G1 X71.558 Y184.340 E114.00821
G1 X68.890 Y181.740 E114.39414
G1 X68.227 Y181.032 E114.49466
G1 X65.773 Y178.090 E114.89153
G1 X65.254 Y177.398 E114.98111
G1 X63.115 Y174.220 E115.37799
G1 X62.670 Y173.478 E115.46757
G1 X60.870 Y170.096 E115.86445
G1 X60.503 Y169.313 E115.95403
G1 X59.060 Y165.764 E116.35091
G1 X58.776 Y164.948 E116.44049
G1 X57.705 Y161.269 E116.83738
G1 X57.506 Y160.427 E116.92695
G1 X56.819 Y156.658 E117.32383
G1 X56.708 Y155.801 E117.41341
G1 X56.413 Y151.981 E117.81029
G1 X56.388 Y151.434 E117.86698
G1 X55.604 Y86.516 E124.59242
G1 X55.613 Y86.008 E124.64507
G1 X55.788 Y82.408 E125.01838
G1 X55.866 Y81.599 E125.10263
G1 X56.388 Y78.033 E125.47594
G1 X56.545 Y77.235 E125.56020
G1 X57.409 Y73.736 E125.93350
G1 X57.642 Y72.957 E126.01777
G1 X58.841 Y69.559 E126.39107
G1 X59.148 Y68.806 E126.47534
G1 X60.670 Y65.539 E126.84864
G1 X61.449 Y64.204 E127.00872
G1 X62.236 Y63.102 E127.14897
G1 X63.760 Y61.486 E127.37913
G1 X64.298 Y62.070 F6000.000
G1 F1500
G1 X65.352 Y61.220 E127.51938
G1 X67.113 Y60.156 E127.73254
G1 X68.356 Y59.620 E127.87278
G1 X70.339 Y59.068 E128.08595
G1 X71.680 Y58.885 E128.22622
G1 X72.709 Y58.815 E128.33302
G1 X129.719 Y58.815 E134.23879
G1 X130.748 Y58.885 E134.34562
G1 X132.090 Y59.068 E134.48586
G1 X134.072 Y59.620 E134.69903
G1 X135.272 Y60.138 E134.83437
G1 X137.076 Y61.220 E135.05239
G1 X138.130 Y62.070 E135.19265
G1 X139.542 Y63.567 E135.40579
G1 X140.329 Y64.669 E135.54610
G1 X141.033 Y65.877 E135.69088
G1 X142.555 Y69.143 E136.06419
G1 X142.833 Y69.825 E136.14042
G1 X144.032 Y73.223 E136.51373
G1 X144.242 Y73.928 E136.58997
G1 X145.107 Y77.427 E136.96328
G1 X145.248 Y78.149 E137.03951
G1 X145.770 Y81.715 E137.41281
G1 X145.841 Y82.447 E137.48905
G1 X146.016 Y86.047 E137.86237
G1 X146.796 Y150.472 E144.53680
G1 X146.762 Y151.919 E144.68670
G1 X146.466 Y155.739 E145.08361
G1 X146.366 Y156.515 E145.16464
G1 X145.679 Y160.284 E145.56151
G1 X145.499 Y161.045 E145.64256
G1 X144.428 Y164.724 E146.03945
G1 X144.171 Y165.463 E146.12049
G1 X142.728 Y169.012 E146.51736
G1 X142.396 Y169.721 E146.59842
G1 X140.596 Y173.102 E146.99531
G1 X140.193 Y173.773 E147.07635
G1 X138.054 Y176.952 E147.47322
G1 X137.584 Y177.577 E147.55427
G1 X135.130 Y180.519 E147.95115
G1 X134.599 Y181.094 E148.03220
G1 X131.855 Y183.768 E148.42908
G1 X131.267 Y184.284 E148.51013
G1 X128.263 Y186.662 E148.90700
G1 X127.626 Y187.115 E148.98806
G1 X124.393 Y189.171 E149.38494
G1 X123.712 Y189.557 E149.46599
G1 X120.285 Y191.270 E149.86286
G1 X119.568 Y191.583 E149.94392
G1 X115.983 Y192.934 E150.34079
G1 X115.238 Y193.172 E150.42184
G1 X111.533 Y194.148 E150.81872
G1 X110.767 Y194.308 E150.89977
G1 X106.982 Y194.898 E151.29664
G1 X106.203 Y194.978 E151.37770
G1 X102.377 Y195.175 E151.77460
G1 X101.595 Y195.175 E151.85563
G1 X97.769 Y194.978 E152.25250
G1 X96.990 Y194.898 E152.33356
G1 X93.205 Y194.308 E152.73043
G1 X92.439 Y194.148 E152.81148
G1 X88.734 Y193.172 E153.20836
G1 X87.989 Y192.934 E153.28941
G1 X84.404 Y191.583 E153.68630
G1 X83.687 Y191.270 E153.76734
G1 X80.260 Y189.557 E154.16423
G1 X79.579 Y189.171 E154.24527
G1 X76.346 Y187.115 E154.64214
G1 X75.709 Y186.662 E154.72320
G1 X72.704 Y184.284 E155.12007
G1 X72.117 Y183.768 E155.20112
G1 X69.449 Y181.167 E155.58706
G1 X68.842 Y180.519 E155.67904
G1 X66.387 Y177.577 E156.07592
G1 X65.918 Y176.952 E156.15697
G1 X63.779 Y173.773 E156.55384
G1 X63.376 Y173.102 E156.63490
G1 X61.576 Y169.721 E157.03177
G1 X61.244 Y169.012 E157.11282
G1 X59.801 Y165.463 E157.50970
G1 X59.544 Y164.724 E157.59075
G1 X58.473 Y161.045 E157.98764
G1 X58.293 Y160.284 E158.06868
G1 X57.606 Y156.515 E158.46556
G1 X57.506 Y155.739 E158.54661
G1 X57.210 Y151.919 E158.94349
G1 X57.188 Y151.424 E158.99478
G1 X56.404 Y86.506 E165.72021
G1 X56.412 Y86.046 E165.76785
G1 X56.587 Y82.447 E166.14116
G1 X56.658 Y81.715 E166.21739
G1 X57.180 Y78.149 E166.59070
G1 X57.321 Y77.427 E166.66694
G1 X58.186 Y73.928 E167.04024
G1 X58.397 Y73.223 E167.11648
G1 X59.595 Y69.825 E167.48978
G1 X59.873 Y69.143 E167.56602
G1 X61.395 Y65.877 E167.93933
G1 X62.100 Y64.669 E168.08416
G1 X62.887 Y63.567 E168.22441
G1 X64.262 Y62.108 E168.43213
G1 X64.801 Y62.693 F6000.000
G1 F1500
G1 X65.854 Y61.842 E168.57238
G1 X67.430 Y60.891 E168.76310
G1 X68.673 Y60.354 E168.90335
G1 X70.447 Y59.860 E169.09408
G1 X71.789 Y59.677 E169.23435
G1 X72.709 Y59.615 E169.32991
G1 X129.719 Y59.615 E175.23568
G1 X130.640 Y59.677 E175.33126
G1 X131.981 Y59.860 E175.47151
G1 X133.755 Y60.354 E175.66224
G1 X134.954 Y60.872 E175.79757
G1 X136.574 Y61.842 E175.99316
G1 X137.628 Y62.693 E176.13342
G1 X138.891 Y64.032 E176.32413
G1 X139.678 Y65.134 E176.46443
G1 X140.308 Y66.215 E176.59398
G1 X141.830 Y69.481 E176.96728
G1 X142.079 Y70.091 E177.03549
G1 X143.277 Y73.489 E177.40880
G1 X143.466 Y74.120 E177.47701
G1 X144.330 Y77.619 E177.85032
G1 X144.457 Y78.265 E177.91853
G1 X144.979 Y81.830 E178.29183
G1 X145.043 Y82.486 E178.36005
G1 X145.217 Y86.085 E178.73336
G1 X145.996 Y150.462 E185.40271
G1 X145.964 Y151.857 E185.54729
G1 X145.668 Y155.677 E185.94419
G1 X145.579 Y156.371 E186.01669
G1 X144.892 Y160.141 E186.41356
G1 X144.731 Y160.822 E186.48608
G1 X143.660 Y164.501 E186.88297
G1 X143.430 Y165.162 E186.95548
G1 X141.987 Y168.711 E187.35235
G1 X141.690 Y169.345 E187.42488
G1 X139.889 Y172.726 E187.82176
G1 X139.529 Y173.327 E187.89427
G1 X137.390 Y176.505 E188.29115
G1 X136.970 Y177.065 E188.36367
G1 X134.516 Y180.007 E188.76054
G1 X134.040 Y180.521 E188.83307
G1 X131.297 Y183.195 E189.22994
G1 X130.771 Y183.657 E189.30246
G1 X127.767 Y186.034 E189.69934
G1 X127.196 Y186.440 E189.77186
G1 X123.963 Y188.496 E190.16874
G1 X123.354 Y188.841 E190.24126
G1 X119.927 Y190.554 E190.63813
G1 X119.286 Y190.834 E190.71066
G1 X115.701 Y192.186 E191.10753
G1 X115.034 Y192.399 E191.18005
G1 X111.329 Y193.374 E191.57693
G1 X110.644 Y193.518 E191.64945
G1 X106.858 Y194.107 E192.04632
G1 X106.162 Y194.179 E192.11885
G1 X102.336 Y194.376 E192.51574
G1 X101.636 Y194.376 E192.58824
G1 X97.810 Y194.179 E192.98511
G1 X97.113 Y194.107 E193.05764
