; generated by Slic3r 1.3.0 on 2020-03-14 at 16:00:17

; external perimeters extrusion width = 0.35mm (3.68mm^3/s)
; perimeters extrusion width = 0.35mm (4.30mm^3/s)
; infill extrusion width = 0.35mm (4.91mm^3/s)
; solid infill extrusion width = 0.35mm (3.07mm^3/s)
; top infill extrusion width = 0.35mm (2.46mm^3/s)
; support material extrusion width = 0.35mm (1.84mm^3/s)

M107
M190 S60 ; set bed temperature and wait for it to be reached
; start of custom G-code
M108 S255 ; turn on M2 fans
M201 X400 Y400 Z400 ; reduce max accel to reduce ringing
G28 ; home all axes
G1 Y50 Z0.3 F9600 ; move forward to avoid clips
G1 X205 Z 10 ; move off platform
M109 S 250 ; wait for hotend to reach temp
G1 Z0.4; position nozzle
G92 E0; zero extruder
G1 F225 E25 ; extrude
G92 E0 ; zero extruder
G1 X190 Z0.1 E1.0 F1200 ; slow wipe
G1 X180 Z0.25 ; lift
; end of custom G-code
; Filament gcode

G21 ; set units to millimeters
G90 ; use absolute coordinates
M82 ; use absolute distances for extrusion
G92 E0
G1 Z0.350 F6000.000
G1 E-1.00000 F1200.00000
G92 E0
G1 X48.615 Y86.301 F6000.000
G1 E1.10000 F1200.00000
M201 X500 Y500
M204 P500 T500
G1 F1500
G1 X51.949 Y84.414 E1.52363
G1 X52.870 Y83.954 E1.63747
G1 X56.381 Y82.420 E2.06109
G1 X57.344 Y82.056 E2.17493
G1 X60.994 Y80.891 E2.59856
G1 X61.989 Y80.629 E2.71240
G1 X65.740 Y79.845 E3.13604
G1 X66.757 Y79.687 E3.24986
G1 X70.463 Y79.304 E3.66182
G1 X71.596 Y79.240 E3.78732
G1 X75.583 Y79.241 E4.22822
G1 X147.043 Y80.358 E12.13088
G1 X149.805 Y80.451 E12.43641
G1 X150.495 Y80.499 E12.51291
G1 X153.055 Y80.766 E12.79745
G1 X153.740 Y80.861 E12.87395
G1 X156.275 Y81.304 E13.15849
G1 X156.952 Y81.447 E13.23499
G1 X159.450 Y82.064 E13.51953
G1 X160.115 Y82.253 E13.59603
G1 X162.565 Y83.041 E13.88058
G1 X163.216 Y83.276 E13.95707
G1 X165.605 Y84.232 E14.24162
G1 X166.238 Y84.511 E14.31811
G1 X168.555 Y85.630 E14.60266
G1 X169.645 Y86.243 E14.74092
G1 X170.401 Y86.733 E14.84056
G1 X171.824 Y87.849 E15.04047
G1 X172.479 Y88.467 E15.14010
G1 X173.677 Y89.822 E15.34003
G1 X174.211 Y90.548 E15.43966
G1 X175.145 Y92.095 E15.63959
G1 X175.539 Y92.906 E15.73921
G1 X176.180 Y94.596 E15.93914
G1 X176.421 Y95.464 E16.03877
G1 X176.747 Y97.243 E16.23869
G1 X176.829 Y98.140 E16.33832
G1 X176.869 Y99.044 E16.43838
G1 X176.869 Y156.055 E22.74230
G1 X176.829 Y156.959 E22.84236
G1 X176.747 Y157.856 E22.94200
G1 X176.421 Y159.635 E23.14192
G1 X176.180 Y160.503 E23.24155
G1 X175.539 Y162.193 E23.44147
G1 X175.215 Y162.861 E23.52350
G1 X175.145 Y163.004 E23.54110
G1 X174.211 Y164.551 E23.74103
G1 X173.677 Y165.277 E23.84065
G1 X172.479 Y166.632 E24.04057
G1 X171.823 Y167.250 E24.14024
G1 X170.401 Y168.366 E24.34012
G1 X169.645 Y168.856 E24.43977
G1 X168.555 Y169.469 E24.57802
G1 X166.238 Y170.588 E24.86257
G1 X165.605 Y170.867 E24.93907
G1 X163.216 Y171.823 E25.22361
G1 X162.565 Y172.058 E25.30011
G1 X160.115 Y172.846 E25.58465
G1 X159.450 Y173.035 E25.66114
G1 X156.952 Y173.652 E25.94569
G1 X156.275 Y173.795 E26.02219
G1 X153.740 Y174.238 E26.30673
G1 X153.055 Y174.333 E26.38323
G1 X150.495 Y174.600 E26.66777
G1 X149.805 Y174.648 E26.74427
G1 X147.233 Y174.737 E27.02881
G1 X73.357 Y173.610 E35.19857
G1 X69.171 Y173.401 E35.66209
G1 X68.146 Y173.295 E35.77593
G1 X64.361 Y172.706 E36.19956
G1 X63.353 Y172.495 E36.31340
G1 X59.648 Y171.519 E36.73702
G1 X58.668 Y171.206 E36.85086
G1 X55.083 Y169.855 E37.27452
G1 X54.139 Y169.443 E37.38833
G1 X50.807 Y167.777 E37.80031
G1 X49.816 Y167.223 E37.92578
G1 X46.584 Y165.166 E38.34941
G1 X45.745 Y164.570 E38.46325
G1 X42.741 Y162.192 E38.88688
G1 X41.967 Y161.513 E39.00072
G1 X39.224 Y158.839 E39.42436
G1 X38.524 Y158.083 E39.53818
G1 X36.070 Y155.141 E39.96182
G1 X35.452 Y154.318 E40.07565
G1 X33.372 Y151.227 E40.48760
G1 X32.784 Y150.257 E40.61310
G1 X30.983 Y146.875 E41.03673
G1 X30.547 Y145.943 E41.15057
G1 X29.143 Y142.491 E41.56253
G1 X28.765 Y141.421 E41.68802
G1 X27.694 Y137.743 E42.11167
G1 X27.458 Y136.741 E42.22549
G1 X26.771 Y132.972 E42.64913
G1 X26.639 Y131.951 E42.76296
G1 X26.351 Y128.236 E43.17493
G1 X26.317 Y127.102 E43.30041
G1 X26.415 Y123.272 E43.72405
G1 X26.495 Y122.245 E43.83788
G1 X26.987 Y118.446 E44.26152
G1 X27.171 Y117.433 E44.37534
G1 X28.051 Y113.704 E44.79897
G1 X28.339 Y112.716 E44.91281
G1 X29.598 Y109.097 E45.33645
G1 X29.985 Y108.144 E45.45028
G1 X31.565 Y104.770 E45.86223
G1 X32.093 Y103.765 E45.98773
G1 X34.066 Y100.481 E46.41136
G1 X34.640 Y99.627 E46.52520
G1 X36.940 Y96.562 E46.94883
G1 X37.599 Y95.772 E47.06267
G1 X40.202 Y92.960 E47.48629
G1 X40.939 Y92.242 E47.60013
G1 X43.817 Y89.712 E48.02376
G1 X44.624 Y89.073 E48.13760
G1 X47.747 Y86.854 E48.56123
G1 X48.571 Y86.329 E48.66926
G1 X49.009 Y86.997 F6000.000
G1 F1500
G1 X52.343 Y85.110 E49.09289
G1 X53.191 Y84.687 E49.19762
G1 X56.701 Y83.152 E49.62125
G1 X57.587 Y82.818 E49.72598
G1 X61.237 Y81.653 E50.14961
G1 X62.153 Y81.412 E50.25434
G1 X65.903 Y80.628 E50.67798
G1 X66.839 Y80.483 E50.78270
G1 X70.545 Y80.100 E51.19465
G1 X71.596 Y80.040 E51.31105
G1 X75.571 Y80.041 E51.75057
G1 X147.031 Y81.157 E59.65323
G1 X149.777 Y81.251 E59.95708
G1 X150.412 Y81.295 E60.02746
G1 X152.972 Y81.561 E60.31200
G1 X153.602 Y81.649 E60.38238
G1 X156.137 Y82.092 E60.66693
G1 X156.760 Y82.223 E60.73730
G1 X159.258 Y82.840 E61.02185
G1 X159.870 Y83.014 E61.09222
G1 X162.320 Y83.803 E61.37677
G1 X162.919 Y84.019 E61.44715
G1 X165.308 Y84.975 E61.73169
G1 X165.890 Y85.231 E61.80207
G1 X168.208 Y86.350 E62.08662
G1 X169.210 Y86.914 E62.21382
G1 X169.966 Y87.404 E62.31345
G1 X171.275 Y88.431 E62.49738
G1 X171.930 Y89.049 E62.59700
G1 X173.033 Y90.295 E62.78094
G1 X173.566 Y91.021 E62.88057
G1 X174.426 Y92.445 E63.06450
G1 X174.820 Y93.255 E63.16413
G1 X175.409 Y94.811 E63.34806
G1 X175.651 Y95.679 E63.44769
G1 X175.950 Y97.315 E63.63162
G1 X176.032 Y98.213 E63.73125
G1 X176.070 Y99.044 E63.82331
G1 X176.070 Y156.055 E70.12722
G1 X176.032 Y156.886 E70.21928
G1 X175.950 Y157.784 E70.31892
G1 X175.651 Y159.420 E70.50284
G1 X175.409 Y160.288 E70.60248
G1 X174.820 Y161.844 E70.78640
G1 X174.495 Y162.511 E70.86844
G1 X174.426 Y162.654 E70.88603
G1 X173.566 Y164.078 E71.06997
G1 X173.033 Y164.804 E71.16959
G1 X171.930 Y166.050 E71.35352
G1 X171.275 Y166.668 E71.45318
G1 X169.966 Y167.695 E71.63708
G1 X169.210 Y168.185 E71.73672
G1 X168.208 Y168.749 E71.86392
G1 X165.890 Y169.868 E72.14846
G1 X165.308 Y170.124 E72.21884
G1 X162.919 Y171.080 E72.50338
G1 X162.320 Y171.296 E72.57376
G1 X159.870 Y172.085 E72.85830
G1 X159.258 Y172.259 E72.92868
G1 X156.760 Y172.876 E73.21322
G1 X156.137 Y173.007 E73.28361
G1 X153.602 Y173.450 E73.56815
G1 X152.972 Y173.538 E73.63853
G1 X150.412 Y173.804 E73.92307
G1 X149.777 Y173.848 E73.99345
G1 X147.206 Y173.937 E74.27799
G1 X73.370 Y172.811 E82.44333
G1 X69.212 Y172.602 E82.90365
G1 X68.270 Y172.505 E83.00839
G1 X64.484 Y171.915 E83.43202
G1 X63.557 Y171.722 E83.53675
G1 X59.852 Y170.746 E83.96038
G1 X58.950 Y170.458 E84.06511
G1 X55.365 Y169.106 E84.48876
G1 X54.497 Y168.727 E84.59347
G1 X51.070 Y167.014 E85.01712
G1 X50.246 Y166.548 E85.12183
G1 X47.013 Y164.492 E85.54546
G1 X46.241 Y163.943 E85.65019
G1 X43.237 Y161.565 E86.07382
G1 X42.526 Y160.940 E86.17855
G1 X39.782 Y158.266 E86.60219
G1 X39.139 Y157.571 E86.70691
G1 X36.684 Y154.629 E87.13055
G1 X36.116 Y153.871 E87.23527
G1 X34.036 Y150.780 E87.64723
G1 X33.490 Y149.881 E87.76362
G1 X31.689 Y146.499 E88.18725
G1 X31.288 Y145.641 E88.29198
G1 X29.884 Y142.190 E88.70393
G1 X29.533 Y141.198 E88.82033
G1 X28.462 Y137.519 E89.24397
G1 X28.245 Y136.597 E89.34869
G1 X27.558 Y132.828 E89.77232
G1 X27.436 Y131.889 E89.87705
G1 X27.149 Y128.175 E90.28900
G1 X27.116 Y127.122 E90.40539
G1 X27.215 Y123.292 E90.82904
G1 X27.288 Y122.348 E90.93376
G1 X27.780 Y118.549 E91.35740
G1 X27.950 Y117.617 E91.46211
G1 X28.830 Y113.888 E91.88574
G1 X29.094 Y112.979 E91.99048
G1 X30.353 Y109.360 E92.41412
G1 X30.710 Y108.483 E92.51884
G1 X32.289 Y105.109 E92.93079
G1 X32.779 Y104.177 E93.04718
G1 X34.751 Y100.892 E93.47082
G1 X35.280 Y100.107 E93.57554
G1 X37.580 Y97.042 E93.99917
G1 X38.186 Y96.315 E94.10391
G1 X40.789 Y93.503 E94.52753
G1 X41.467 Y92.842 E94.63227
G1 X44.345 Y90.313 E95.05589
G1 X45.087 Y89.725 E95.16063
G1 X48.210 Y87.506 E95.58426
G1 X48.965 Y87.025 E95.68318
G1 X49.403 Y87.693 F6000.000
G1 F1500
G1 X52.737 Y85.806 E96.10682
G1 X53.511 Y85.420 E96.20244
G1 X57.021 Y83.885 E96.62606
G1 X57.831 Y83.580 E96.72169
G1 X61.480 Y82.415 E97.14532
G1 X62.317 Y82.195 E97.24094
G1 X66.067 Y81.411 E97.66458
G1 X66.921 Y81.278 E97.76020
G1 X70.627 Y80.895 E98.17215
G1 X71.596 Y80.840 E98.27944
G1 X75.558 Y80.841 E98.71757
G1 X147.018 Y81.957 E106.62024
G1 X149.750 Y82.050 E106.92241
G1 X150.329 Y82.090 E106.98667
G1 X152.889 Y82.357 E107.27121
G1 X153.464 Y82.437 E107.33547
G1 X155.999 Y82.880 E107.62002
G1 X156.568 Y83.000 E107.68428
G1 X159.066 Y83.617 E107.96882
G1 X159.625 Y83.776 E108.03308
G1 X162.075 Y84.564 E108.31762
G1 X162.621 Y84.761 E108.38188
G1 X165.011 Y85.717 E108.66642
G1 X165.542 Y85.952 E108.73068
G1 X167.860 Y87.071 E109.01523
G1 X168.775 Y87.586 E109.13137
G1 X169.531 Y88.075 E109.23100
G1 X170.726 Y89.013 E109.39894
G1 X171.382 Y89.631 E109.49856
G1 X172.388 Y90.769 E109.66651
G1 X172.922 Y91.495 E109.76613
G1 X173.707 Y92.795 E109.93407
G1 X174.101 Y93.605 E110.03370
G1 X174.639 Y95.026 E110.20164
G1 X174.880 Y95.894 E110.30127
G1 X175.154 Y97.388 E110.46921
G1 X175.235 Y98.285 E110.56883
G1 X175.270 Y99.044 E110.65289
G1 X175.270 Y156.055 E116.95680
G1 X175.235 Y156.814 E117.04086
G1 X175.154 Y157.712 E117.14049
G1 X174.880 Y159.205 E117.30843
G1 X174.639 Y160.073 E117.40806
G1 X174.101 Y161.494 E117.57600
G1 X173.776 Y162.161 E117.65803
G1 X173.707 Y162.304 E117.67563
G1 X172.921 Y163.604 E117.84357
G1 X172.388 Y164.330 E117.94319
G1 X171.382 Y165.468 E118.11113
G1 X170.726 Y166.086 E118.21079
G1 X169.531 Y167.024 E118.37869
G1 X168.775 Y167.514 E118.47834
G1 X167.860 Y168.028 E118.59447
G1 X165.542 Y169.147 E118.87901
G1 X165.011 Y169.382 E118.94327
G1 X162.621 Y170.338 E119.22782
G1 X162.075 Y170.535 E119.29208
G1 X159.625 Y171.323 E119.57662
G1 X159.066 Y171.482 E119.64087
G1 X156.568 Y172.099 E119.92542
G1 X155.999 Y172.219 E119.98968
G1 X153.464 Y172.662 E120.27423
G1 X152.889 Y172.742 E120.33848
G1 X150.329 Y173.009 E120.62303
G1 X149.750 Y173.049 E120.68728
G1 X147.178 Y173.138 E120.97183
G1 X73.382 Y172.011 E129.13274
G1 X69.253 Y171.803 E129.58988
G1 X68.393 Y171.715 E129.68551
G1 X64.607 Y171.125 E130.10914
G1 X63.761 Y170.948 E130.20476
G1 X60.056 Y169.972 E130.62839
G1 X59.232 Y169.709 E130.72401
G1 X55.647 Y168.358 E131.14766
G1 X54.855 Y168.012 E131.24327
G1 X51.428 Y166.299 E131.66692
G1 X50.675 Y165.873 E131.76252
G1 X47.442 Y163.817 E132.18615
G1 X46.738 Y163.316 E132.28178
G1 X43.734 Y160.938 E132.70541
G1 X43.084 Y160.367 E132.80103
G1 X40.340 Y157.693 E133.22467
G1 X39.753 Y157.058 E133.32029
G1 X37.299 Y154.116 E133.74392
G1 X36.780 Y153.425 E133.83954
G1 X34.700 Y150.334 E134.25149
G1 X34.196 Y149.505 E134.35878
G1 X32.395 Y146.123 E134.78241
G1 X32.028 Y145.340 E134.87803
G1 X30.625 Y141.889 E135.28999
G1 X30.301 Y140.974 E135.39728
G1 X29.230 Y137.296 E135.82092
G1 X29.032 Y136.454 E135.91653
G1 X28.345 Y132.685 E136.34016
G1 X28.234 Y131.827 E136.43578
G1 X27.946 Y128.113 E136.84774
G1 X27.916 Y127.143 E136.95502
G1 X28.014 Y123.313 E137.37867
G1 X28.081 Y122.451 E137.47428
G1 X28.573 Y118.651 E137.89792
G1 X28.728 Y117.801 E137.99353
G1 X29.608 Y114.072 E138.41716
G1 X29.850 Y113.242 E138.51279
G1 X31.109 Y109.623 E138.93643
G1 X31.434 Y108.822 E139.03204
G1 X33.014 Y105.448 E139.44400
G1 X33.465 Y104.589 E139.55128
G1 X35.437 Y101.304 E139.97491
G1 X35.920 Y100.587 E140.07054
G1 X38.219 Y97.522 E140.49416
G1 X38.773 Y96.858 E140.58979
G1 X41.376 Y94.047 E141.01342
G1 X41.995 Y93.443 E141.10904
G1 X44.873 Y90.914 E141.53267
G1 X45.551 Y90.377 E141.62830
G1 X48.673 Y88.157 E142.05193
G1 X49.359 Y87.721 E142.14175
G1 X49.797 Y88.389 F6000.000
G1 F1500
G1 X53.131 Y86.502 E142.56538
G1 X53.831 Y86.153 E142.65190
G1 X57.342 Y84.618 E143.07552
G1 X58.074 Y84.342 E143.16204
G1 X61.724 Y83.177 E143.58567
G1 X62.480 Y82.978 E143.67219
G1 X66.230 Y82.194 E144.09583
G1 X67.004 Y82.074 E144.18234
G1 X70.709 Y81.691 E144.59429
G1 X71.596 Y81.640 E144.69247
G1 X75.546 Y81.641 E145.12923
G1 X147.006 Y82.757 E153.03189
G1 X149.722 Y82.850 E153.33238
G1 X150.246 Y82.886 E153.39053
G1 X152.806 Y83.153 E153.67507
G1 X153.327 Y83.225 E153.73321
G1 X155.408 Y83.589 E153.96681
G1 X156.376 Y83.776 E154.07588
G1 X158.874 Y84.394 E154.36042
G1 X159.380 Y84.537 E154.41856
G1 X161.830 Y85.326 E154.70310
G1 X162.324 Y85.504 E154.76124
G1 X164.713 Y86.460 E155.04578
G1 X165.195 Y86.672 E155.10392
G1 X167.512 Y87.791 E155.38847
G1 X168.340 Y88.257 E155.49355
G1 X169.096 Y88.747 E155.59318
G1 X170.177 Y89.595 E155.74512
G1 X170.833 Y90.213 E155.84475
G1 X171.743 Y91.243 E155.99670
G1 X172.277 Y91.969 E156.09633
G1 X172.987 Y93.145 E156.24828
G1 X173.381 Y93.955 E156.34790
G1 X173.868 Y95.240 E156.49985
G1 X174.110 Y96.108 E156.59948
G1 X174.357 Y97.460 E156.75143
G1 X174.439 Y98.357 E156.85105
G1 X174.470 Y99.044 E156.92710
G1 X174.470 Y156.055 E163.23102
G1 X174.439 Y156.742 E163.30707
G1 X174.357 Y157.639 E163.40670
G1 X174.110 Y158.991 E163.55864
G1 X173.868 Y159.859 E163.65827
G1 X173.381 Y161.144 E163.81022
G1 X172.987 Y161.954 E163.90985
G1 X172.277 Y163.130 E164.06180
G1 X171.743 Y163.856 E164.16142
G1 X170.833 Y164.886 E164.31336
G1 X170.177 Y165.504 E164.41302
G1 X169.096 Y166.352 E164.56493
G1 X168.340 Y166.842 E164.66458
G1 X167.512 Y167.308 E164.76965
G1 X165.195 Y168.427 E165.05420
G1 X164.713 Y168.639 E165.11234
G1 X162.324 Y169.595 E165.39688
G1 X161.830 Y169.773 E165.45502
G1 X159.380 Y170.562 E165.73956
G1 X158.874 Y170.705 E165.79770
G1 X156.376 Y171.323 E166.08224
G1 X155.862 Y171.431 E166.14039
G1 X153.327 Y171.874 E166.42493
G1 X152.806 Y171.946 E166.48307
G1 X150.246 Y172.213 E166.76761
G1 X149.722 Y172.249 E166.82575
G1 X147.150 Y172.339 E167.11029
G1 X73.394 Y171.211 E175.26679
G1 X69.294 Y171.005 E175.72073
G1 X68.516 Y170.924 E175.80725
G1 X64.730 Y170.335 E176.23088
G1 X63.964 Y170.175 E176.31740
G1 X60.260 Y169.199 E176.74103
G1 X59.514 Y168.961 E176.82755
G1 X55.929 Y167.609 E177.25120
G1 X55.212 Y167.296 E177.33769
G1 X51.880 Y165.630 E177.74965
G1 X51.104 Y165.198 E177.84783
G1 X47.872 Y163.142 E178.27146
G1 X47.234 Y162.688 E178.35798
G1 X44.230 Y160.311 E178.78161
G1 X43.642 Y159.794 E178.86813
G1 X40.898 Y157.120 E179.29176
G1 X40.367 Y156.546 E179.37827
G1 X37.913 Y153.604 E179.80191
G1 X37.443 Y152.978 E179.88842
G1 X35.363 Y149.887 E180.30038
G1 X34.902 Y149.129 E180.39856
G1 X33.101 Y145.747 E180.82219
G1 X32.769 Y145.038 E180.90870
G1 X31.366 Y141.587 E181.32066
G1 X31.069 Y140.751 E181.41884
G1 X29.998 Y137.072 E181.84248
G1 X29.819 Y136.311 E181.92899
G1 X29.132 Y132.541 E182.35262
G1 X29.031 Y131.766 E182.43913
G1 X28.744 Y128.051 E182.85109
G1 X28.715 Y127.164 E182.94927
G1 X28.814 Y123.334 E183.37291
G1 X28.874 Y122.554 E183.45942
G1 X29.353 Y118.859 E183.87137
G1 X29.507 Y117.984 E183.96955
G1 X30.387 Y114.256 E184.39318
G1 X30.605 Y113.504 E184.47970
G1 X31.864 Y109.886 E184.90334
G1 X32.159 Y109.161 E184.98985
G1 X33.738 Y105.787 E185.40180
G1 X34.151 Y105.001 E185.49998
G1 X36.123 Y101.716 E185.92361
G1 X36.560 Y101.067 E186.01013
G1 X38.859 Y98.003 E186.43376
G1 X39.360 Y97.402 E186.52028
G1 X41.963 Y94.590 E186.94391
G1 X42.523 Y94.044 E187.03043
G1 X45.401 Y91.515 E187.45405
G1 X46.014 Y91.029 E187.54057
G1 X49.137 Y88.809 E187.96420
