; generated by Slic3r 1.3.0 on 2020-01-26 at 15:10:36

; external perimeters extrusion width = 0.35mm (3.68mm^3/s)
; perimeters extrusion width = 0.35mm (4.30mm^3/s)
; infill extrusion width = 0.35mm (4.91mm^3/s)
; solid infill extrusion width = 0.35mm (3.07mm^3/s)
; top infill extrusion width = 0.35mm (2.46mm^3/s)
; support material extrusion width = 0.35mm (1.84mm^3/s)

M107
M190 S108 ; set bed temperature and wait for it to be reached
; start of custom G-code
M108 S255 ; turn on M2 fans
M201 X400 Y400 Z400 ; reduce max accel to reduce ringing
G28 ; home all axes
G1 Y50 Z0.3 F9600 ; move forward to avoid clips
G1 X205 Z 10 ; move off platform
M109 S 250 ; wait for hotend to reach temp
G1 Z0.4; position nozzle
G92 E0; zero extruder
G1 F225 E25 ; extrude
G92 E0 ; zero extruder
G1 X190 Z0.1 E1.0 F1200 ; slow wipe
G1 X180 Z0.25 ; lift
; end of custom G-code
; Filament gcode

G21 ; set units to millimeters
G90 ; use absolute coordinates
M82 ; use absolute distances for extrusion
G92 E0
G1 Z0.350 F6000.000
G1 E-1.00000 F1200.00000
G92 E0
G1 X65.755 Y45.412 F6000.000
G1 E1.10000 F1200.00000
M201 X500 Y500
M204 P500 T500
G1 F1500
G1 X68.059 Y43.785 E1.39226
G1 X70.727 Y42.866 E1.68452
G1 X72.665 Y42.686 E1.88614
G1 X157.477 Y43.097 E10.67201
G1 X161.264 Y43.862 E11.07229
G1 X187.452 Y54.740 E14.00982
G1 X189.879 Y56.179 E14.30208
G1 X191.807 Y58.239 E14.59434
G1 X193.083 Y60.755 E14.88660
G1 X193.615 Y63.975 E15.22465
G1 X193.615 Y113.654 E20.37101
G1 X193.008 Y189.954 E28.27525
G1 X192.587 Y192.744 E28.56750
G1 X191.405 Y195.306 E28.85976
G1 X189.553 Y197.435 E29.15202
G1 X187.372 Y198.872 E29.42266
G1 X161.184 Y211.572 E32.43763
G1 X158.498 Y212.433 E32.72988
G1 X156.888 Y212.574 E32.89730
G1 X72.651 Y213.135 E41.62367
G1 X47.584 Y213.136 E44.22035
G1 X44.791 Y212.738 E44.51261
G1 X42.220 Y211.575 E44.80487
G1 X40.924 Y210.595 E44.97319
G1 X13.916 Y186.481 E48.72389
G1 X12.098 Y184.324 E49.01615
G1 X10.955 Y181.745 E49.30841
G1 X10.577 Y179.018 E49.59358
G1 X10.609 Y101.745 E57.59831
G1 X11.008 Y98.952 E57.89056
G1 X12.171 Y96.382 E58.18282
G1 X13.747 Y94.476 E58.43898
G1 X65.716 Y45.448 E65.84021
G1 X66.303 Y45.994 F6000.000
G1 F1500
G1 X68.523 Y44.447 E66.12047
G1 X71.097 Y43.612 E66.40073
G1 X72.661 Y43.486 E66.56331
G1 X157.473 Y43.897 E75.34919
G1 X160.958 Y44.601 E75.71745
G1 X187.145 Y55.479 E78.65498
G1 X189.464 Y56.873 E78.93524
G1 X191.277 Y58.881 E79.21551
G1 X192.427 Y61.330 E79.49577
G1 X192.815 Y63.975 E79.77268
G1 X192.815 Y113.648 E84.91838
G1 X192.208 Y189.948 E92.82262
G1 X191.789 Y192.621 E93.10288
G1 X190.610 Y195.056 E93.38314
G1 X188.774 Y197.043 E93.66341
G1 X187.023 Y198.152 E93.87815
G1 X160.835 Y210.852 E96.89311
G1 X158.254 Y211.662 E97.17337
G1 X156.882 Y211.774 E97.31593
G1 X72.645 Y212.336 E106.04230
G1 X47.584 Y212.336 E108.63843
G1 X44.908 Y211.938 E108.91869
G1 X41.457 Y209.998 E109.32877
G1 X14.449 Y185.884 E113.07946
G1 X12.718 Y183.805 E113.35973
G1 X11.666 Y181.312 E113.63999
G1 X11.377 Y179.018 E113.87955
G1 X11.409 Y101.746 E121.88427
G1 X11.808 Y99.070 E122.16453
G1 X12.968 Y96.626 E122.44480
G1 X14.295 Y95.058 E122.65761
G1 X66.265 Y46.030 E130.05884
G1 X66.852 Y46.576 F6000.000
G1 F1500
G1 X68.983 Y45.112 E130.32657
G1 X72.657 Y44.286 E130.71671
G1 X157.469 Y44.697 E139.50258
G1 X160.651 Y45.339 E139.83882
G1 X186.838 Y56.218 E142.77635
G1 X189.044 Y57.565 E143.04408
G1 X190.736 Y59.518 E143.31182
G1 X191.754 Y61.894 E143.57955
G1 X192.015 Y63.975 E143.79679
G1 X192.015 Y113.642 E148.94183
G1 X191.408 Y189.942 E156.84607
G1 X190.990 Y192.492 E157.11380
G1 X189.816 Y194.795 E157.38153
G1 X187.998 Y196.632 E157.64927
G1 X186.674 Y197.433 E157.80960
G1 X160.486 Y210.133 E160.82456
G1 X156.877 Y210.974 E161.20848
G1 X72.640 Y211.536 E169.93486
G1 X47.584 Y211.536 E172.53043
G1 X45.030 Y211.138 E172.79816
G1 X41.990 Y209.402 E173.16088
G1 X14.982 Y185.288 E176.91158
G1 X13.342 Y183.290 E177.17931
G1 X12.387 Y180.889 E177.44704
G1 X12.177 Y179.018 E177.64199
G1 X12.209 Y101.746 E185.64672
G1 X12.607 Y99.192 E185.91445
G1 X13.764 Y96.881 E186.18218
G1 X14.844 Y95.640 E186.35268
G1 X66.814 Y46.612 E193.75391
G1 X67.401 Y47.157 F6000.000
G1 F1500
G1 X69.438 Y45.782 E194.00849
G1 X72.653 Y45.086 E194.34928
G1 X157.465 Y45.497 E203.13515
G1 X160.344 Y46.078 E203.43937
G1 X186.531 Y56.957 E206.37690
G1 X188.619 Y58.254 E206.63149
G1 X190.183 Y60.149 E206.88607
G1 X191.060 Y62.445 E207.14066
G1 X191.216 Y63.975 E207.29994
G1 X191.215 Y113.635 E212.44432
G1 X190.608 Y189.935 E220.34855
G1 X190.191 Y192.357 E220.60314
G1 X189.024 Y194.520 E220.85773
G1 X186.325 Y196.713 E221.21797
G1 X160.137 Y209.413 E224.23293
G1 X156.872 Y210.174 E224.58029
G1 X72.635 Y210.736 E233.30667
G1 X47.584 Y210.736 E235.90169
G1 X45.159 Y210.339 E236.15627
G1 X42.523 Y208.805 E236.47221
G1 X15.515 Y184.691 E240.22291
G1 X13.970 Y182.779 E240.47749
G1 X13.117 Y180.475 E240.73208
G1 X12.976 Y179.019 E240.88359
G1 X13.009 Y101.746 E248.88831
G1 X13.407 Y99.321 E249.14290
G1 X14.558 Y97.150 E249.39748
G1 X15.393 Y96.222 E249.52684
G1 X67.363 Y47.193 E256.92806
G1 X67.950 Y47.739 F6000.000
G1 F1500
G1 X69.888 Y46.457 E257.16878
G1 X72.649 Y45.886 E257.46088
G1 X157.461 Y46.297 E266.24676
G1 X160.037 Y46.817 E266.51896
G1 X186.224 Y57.695 E269.45649
G1 X188.187 Y58.940 E269.69721
G1 X189.615 Y60.773 E269.93793
G1 X190.416 Y63.975 E270.27981
G1 X190.416 Y113.629 E275.42353
G1 X189.808 Y189.929 E283.32777
G1 X189.393 Y192.215 E283.56849
G1 X188.232 Y194.228 E283.80921
G1 X185.976 Y195.993 E284.10595
G1 X159.788 Y208.693 E287.12091
G1 X156.866 Y209.374 E287.43171
G1 X72.629 Y209.936 E296.15809
G1 X47.584 Y209.936 E298.75256
G1 X45.295 Y209.539 E298.99328
G1 X43.055 Y208.208 E299.26310
G1 X16.047 Y184.094 E303.01380
G1 X14.604 Y182.273 E303.25452
G1 X13.776 Y179.019 E303.60234
G1 X13.808 Y101.747 E311.60706
G1 X14.206 Y99.457 E311.84778
G1 X15.942 Y96.803 E312.17628
G1 X67.912 Y47.775 E319.57751
G1 E318.57751 F1200.00000
G92 E0
G1 X103.572 Y96.603 F6000.000
G1 E1.10000 F1200.00000
G1 F1500
G1 X104.115 Y96.837 E1.16571
G1 X156.438 Y47.476 E9.15049
G1 X162.196 Y49.961 E9.84669
G1 X162.196 Y58.943 E10.84383
G1 X162.460 Y59.207 E10.88521
G1 X185.591 Y59.207 E13.45286
G1 X188.384 Y62.000 E13.89132
G1 X188.384 Y115.550 E19.83567
G1 X185.591 Y118.343 E20.27413
G1 X162.460 Y118.343 E22.84178
G1 X162.196 Y118.606 E22.88316
G1 X162.196 Y128.250 E23.95363
G1 X161.657 Y128.789 E24.03823
G1 X161.589 Y128.954 E24.05810
G1 X161.589 Y135.243 E24.75623
G1 X161.853 Y135.507 E24.79761
G1 X184.983 Y135.507 E27.36526
G1 X187.776 Y138.300 E27.80373
G1 X187.776 Y191.850 E33.74807
G1 X184.983 Y194.643 E34.18653
G1 X161.853 Y194.643 E36.75418
G1 X161.589 Y194.906 E36.79556
G1 X161.589 Y204.550 E37.86604
G1 X158.796 Y207.343 E38.30450
G1 X130.942 Y207.343 E41.39639
G1 X129.301 Y206.716 E41.59144
G1 X104.072 Y184.191 E45.34587
G1 X103.540 Y184.429 E45.41060
G1 X103.540 Y192.411 E46.29668
G1 X100.747 Y195.204 E46.73514
G1 X77.616 Y195.204 E49.30279
G1 X77.352 Y195.468 E49.34418
G1 X77.352 Y205.111 E50.41465
G1 X74.559 Y207.904 E50.85311
G1 X46.706 Y207.904 E53.94500
G1 X45.064 Y207.278 E54.14005
G1 X15.837 Y181.183 E58.48936
G1 X15.780 Y176.992 E58.95462
G1 X64.320 Y131.200 E66.36217
G1 X64.094 Y130.632 E66.42998
G1 X46.738 Y130.632 E68.35664
G1 X45.096 Y130.006 E68.55169
G1 X15.870 Y103.910 E72.90099
G1 X15.812 Y99.719 E73.36626
G1 X71.625 Y47.065 E81.88380
G1 X77.384 Y49.549 E82.58000
G1 X77.384 Y58.532 E83.57714
G1 X77.648 Y58.796 E83.61852
G1 X100.779 Y58.796 E86.18617
G1 X103.572 Y61.589 E86.62464
G1 X103.572 Y96.550 E90.50553
G1 E89.50553 F1200.00000
G92 E0
G1 X101.222 Y101.045 F6000.000
G1 X102.715 Y98.590 F6000.000
G1 E1.10000 F1200.00000
G1 F1500
G1 X103.258 Y98.824 E1.16571
G1 X156.616 Y48.487 E9.30848
G1 X161.339 Y50.524 E9.87953
G1 X161.339 Y59.800 E10.90923
G1 X161.603 Y60.064 E10.95061
G1 X185.236 Y60.064 E13.57400
G1 X187.527 Y62.355 E13.93364
G1 X187.527 Y115.195 E19.79916
G1 X185.236 Y117.486 E20.15880
G1 X161.603 Y117.486 E22.78219
G1 X161.339 Y117.749 E22.82357
G1 X161.339 Y127.895 E23.94977
G1 X160.800 Y128.434 E24.03437
G1 X160.732 Y128.599 E24.05425
G1 X160.732 Y136.100 E24.88693
G1 X160.995 Y136.364 E24.92832
G1 X184.628 Y136.364 E27.55170
G1 X186.919 Y138.655 E27.91134
G1 X186.919 Y191.495 E33.77686
G1 X184.628 Y193.786 E34.13650
G1 X160.995 Y193.786 E36.75989
G1 X160.732 Y194.049 E36.80127
G1 X160.732 Y204.195 E37.92748
G1 X158.441 Y206.486 E38.28712
G1 X131.100 Y206.486 E41.32207
G1 X129.754 Y205.972 E41.48205
G1 X103.215 Y182.276 E45.43145
G1 X102.682 Y182.514 E45.49619
G1 X102.682 Y192.056 E46.55536
G1 X100.391 Y194.347 E46.91500
G1 X76.759 Y194.347 E49.53839
G1 X76.495 Y194.611 E49.57977
G1 X76.495 Y204.756 E50.70598
G1 X74.204 Y207.047 E51.06562
G1 X46.864 Y207.047 E54.10057
G1 X45.517 Y206.533 E54.26055
G1 X16.689 Y180.794 E58.55051
G1 X16.642 Y177.357 E58.93213
G1 X66.477 Y130.342 E66.53737
G1 X66.252 Y129.775 E66.60518
G1 X46.896 Y129.775 E68.75382
G1 X45.549 Y129.261 E68.91380
G1 X16.721 Y103.522 E73.20376
G1 X16.674 Y100.084 E73.58538
G1 X71.804 Y48.076 E81.99853
G1 X76.527 Y50.113 E82.56957
G1 X76.527 Y59.389 E83.59928
G1 X76.791 Y59.653 E83.64066
G1 X100.424 Y59.653 E86.26405
G1 X102.715 Y61.944 E86.62369
G1 X102.715 Y98.537 E90.68574
G1 E89.68574 F1200.00000
G92 E0
G1 X101.222 Y101.045 F6000.000
G1 X101.857 Y100.577 F6000.000
G1 E1.10000 F1200.00000
G1 F1500
G1 X102.401 Y100.811 E1.16571
G1 X156.794 Y49.497 E9.46647
G1 X160.482 Y51.088 E9.91236
G1 X160.482 Y60.658 E10.97463
G1 X160.746 Y60.921 E11.01602
G1 X184.881 Y60.921 E13.69514
G1 X186.670 Y62.710 E13.97595
G1 X186.670 Y114.840 E19.76265
G1 X184.881 Y116.629 E20.04347
G1 X160.746 Y116.629 E22.72259
G1 X160.482 Y116.892 E22.76397
G1 X160.482 Y127.540 E23.94592
G1 X159.943 Y128.079 E24.03051
G1 X159.875 Y128.244 E24.05039
G1 X159.875 Y136.957 E25.01763
G1 X160.138 Y137.221 E25.05902
G1 X184.273 Y137.221 E27.73814
G1 X186.062 Y139.010 E28.01895
G1 X186.062 Y191.140 E33.80565
G1 X184.273 Y192.928 E34.08647
G1 X160.138 Y192.928 E36.76559
G1 X159.875 Y193.192 E36.80697
G1 X159.875 Y203.840 E37.98892
G1 X158.086 Y205.628 E38.26973
G1 X131.258 Y205.628 E41.24774
G1 X130.207 Y205.227 E41.37266
G1 X102.357 Y180.362 E45.51704
G1 X101.825 Y180.600 E45.58177
G1 X101.825 Y191.701 E46.81405
G1 X100.036 Y193.490 E47.09486
G1 X75.901 Y193.490 E49.77399
G1 X75.638 Y193.753 E49.81537
G1 X75.638 Y204.401 E50.99731
G1 X73.849 Y206.190 E51.27813
G1 X47.022 Y206.190 E54.25614
G1 X45.970 Y205.789 E54.38105
G1 X17.541 Y180.406 E58.61166
G1 X17.504 Y177.722 E58.90964
G1 X68.635 Y129.485 E66.71257
G1 X68.410 Y128.917 E66.78038
G1 X47.054 Y128.917 E69.15100
G1 X46.002 Y128.516 E69.27592
G1 X17.573 Y103.133 E73.50652
G1 X17.537 Y100.449 E73.80451
G1 X71.982 Y49.086 E82.11325
G1 X75.670 Y50.677 E82.55914
G1 X75.670 Y60.247 E83.62141
G1 X75.934 Y60.510 E83.66280
G1 X100.069 Y60.510 E86.34192
G1 X101.857 Y62.299 E86.62273
G1 X101.857 Y100.524 E90.86594
G1 E89.86594 F1200.00000
G92 E0
G1 X101.222 Y101.045 F6000.000
G1 X101.227 Y101.664 F6000.000
G1 X107.271 Y115.164 F6000.000
G1 X108.794 Y127.011 F6000.000
G1 X117.704 Y138.514 F6000.000
G1 X153.773 Y128.471 F6000.000
G1 E1.10000 F1200.00000
G1 F1500
G1 X132.024 Y128.471 E3.51432
G1 X131.267 Y128.183 E3.60418
G1 X103.237 Y103.156 E7.77543
G1 X103.211 Y101.225 E7.98977
G1 X156.972 Y50.507 E16.19412
G1 X159.625 Y51.652 E16.51485
G1 X159.625 Y61.515 E17.60969
G1 X159.889 Y61.778 E17.65108
G1 X184.526 Y61.778 E20.38593
G1 X185.812 Y63.065 E20.58793
G1 X185.812 Y114.485 E26.29580
G1 X184.526 Y115.771 E26.49780
G1 X159.889 Y115.771 E29.23265
G1 X159.625 Y116.035 E29.27404
G1 X159.625 Y127.185 E30.51172
G1 X159.086 Y127.724 E30.59631
G1 X159.018 Y127.889 E30.61619
G1 X159.018 Y137.815 E31.71799
G1 X159.281 Y138.078 E31.75937
G1 X183.918 Y138.078 E34.49423
G1 X185.205 Y139.365 E34.69623
G1 X185.205 Y190.785 E40.40410
G1 X183.918 Y192.071 E40.60610
G1 X159.281 Y192.071 E43.34095
G1 X159.018 Y192.335 E43.38234
G1 X159.018 Y203.485 E44.62002
G1 X157.731 Y204.771 E44.82201
G1 X131.416 Y204.771 E47.74308
G1 X130.660 Y204.483 E47.83293
G1 X102.630 Y179.456 E52.00418
G1 X102.603 Y177.525 E52.21853
G1 X153.999 Y129.039 E60.06183
G1 X153.793 Y128.520 E60.12382
G1 E59.12382 F1200.00000
G92 E0
G1 X158.821 Y128.275 F6000.000
G1 X155.931 Y127.614 F6000.000
G1 E1.10000 F1200.00000
G1 F1500
G1 X132.182 Y127.614 E3.73630
G1 X131.720 Y127.438 E3.79109
G1 X104.089 Y102.768 E7.90300
G1 X104.073 Y101.590 E8.03370
G1 X157.150 Y51.518 E16.13364
G1 X158.768 Y52.215 E16.32922
G1 X158.768 Y62.372 E17.45663
G1 X159.031 Y62.635 E17.49801
G1 X184.171 Y62.635 E20.28860
G1 X184.955 Y63.420 E20.41178
G1 X184.955 Y114.130 E26.04083
G1 X184.171 Y114.914 E26.16400
G1 X159.031 Y114.914 E28.95459
G1 X158.768 Y115.178 E28.99598
G1 X158.768 Y126.830 E30.28939
G1 X157.707 Y127.890 E30.45589
G1 X157.797 Y128.359 E30.50882
G1 X158.160 Y128.515 E30.55278
G1 X158.160 Y138.672 E31.68019
G1 X158.424 Y138.935 E31.72157
G1 X183.563 Y138.935 E34.51217
G1 X184.348 Y139.720 E34.63534
G1 X184.348 Y190.430 E40.26439
G1 X183.563 Y191.214 E40.38756
G1 X158.424 Y191.214 E43.17815
G1 X158.160 Y191.478 E43.21954
G1 X158.160 Y203.130 E44.51295
G1 X157.376 Y203.914 E44.63612
G1 X131.574 Y203.914 E47.50025
G1 X131.113 Y203.738 E47.55504
G1 X103.482 Y179.068 E51.66694
G1 X103.466 Y177.890 E51.79764
G1 X156.156 Y128.182 E59.83864
G1 X155.950 Y127.663 E59.90062
G1 E58.90062 F1200.00000
G92 E0
G1 X156.029 Y128.275 F6000.000
G1 X158.821 Y128.275 F6000.000
G1 X158.821 Y127.667 F6000.000
G1 X159.428 Y128.275 F6000.000
G1 X169.428 Y128.275 F6000.000
G1 X170.778 Y126.925 F6000.000
G1 X176.266 Y126.925 F6000.000
G1 X185.616 Y117.575 F6000.000
G1 X186.616 Y115.575 F6000.000
G1 X186.616 Y61.975 F6000.000
G1 X185.616 Y59.975 F6000.000
G1 X180.095 Y54.454 F6000.000
G1 X166.950 Y54.454 F6000.000
G1 X159.428 Y46.933 F6000.000
G1 X159.309 Y46.933 F6000.000
G1 X157.911 Y52.779 F6000.000
G1 E1.10000 F1200.00000
G1 F1500
G1 X157.911 Y63.229 E2.25998
G1 X158.174 Y63.493 E2.30136
G1 X183.816 Y63.493 E5.14769
G1 X184.098 Y63.775 E5.19204
G1 X184.098 Y113.775 E10.74227
G1 X183.816 Y114.057 E10.78662
G1 X158.174 Y114.057 E13.63295
G1 X157.911 Y114.321 E13.67433
G1 X157.911 Y126.475 E15.02348
G1 X157.628 Y126.757 E15.06783
G1 X132.340 Y126.757 E17.87501
G1 X132.174 Y126.694 E17.89474
G1 X104.941 Y102.379 E21.94729
G1 X104.935 Y101.955 E21.99435
G1 X157.328 Y52.528 E29.98990
G1 X157.862 Y52.758 E30.05449
G1 E29.05449 F1200.00000
G92 E0
G1 X159.309 Y46.933 F6000.000
G1 X159.428 Y46.933 F6000.000
G1 X166.950 Y54.454 F6000.000
G1 X180.095 Y54.454 F6000.000
G1 X185.616 Y59.975 F6000.000
G1 X186.616 Y61.975 F6000.000
G1 X186.616 Y115.575 F6000.000
G1 X156.721 Y128.828 F6000.000
G1 E1.10000 F1200.00000
G1 F1500
G1 X157.303 Y129.079 E1.17042
G1 X157.303 Y139.529 E2.33040
G1 X157.567 Y139.793 E2.37178
G1 X183.208 Y139.793 E5.21811
G1 X183.491 Y140.075 E5.26246
G1 X183.491 Y190.075 E10.81269
G1 X183.208 Y190.357 E10.85704
G1 X157.567 Y190.357 E13.70337
G1 X157.303 Y190.621 E13.74475
G1 X157.303 Y202.775 E15.09390
G1 X157.021 Y203.057 E15.13825
G1 X131.732 Y203.057 E17.94543
G1 X131.566 Y202.994 E17.96516
G1 X104.334 Y178.679 E22.01771
G1 X104.328 Y178.255 E22.06477
G1 X156.683 Y128.864 E30.05449
G1 E29.05449 F1200.00000
G92 E0
G1 X153.237 Y128.275 F6000.000
G1 X151.841 Y129.896 F6000.000
G1 E1.10000 F1200.00000
G1 F1500
G1 X102.369 Y176.568 E8.64985
G1 X101.825 Y176.334 E8.71556
G1 X101.825 Y139.571 E12.79641
G1 X100.036 Y137.783 E13.07722
G1 X75.901 Y137.783 E15.75635
G1 X75.638 Y137.519 E15.79773
