; generated by Slic3r 1.3.0 on 2020-03-14 at 16:45:24

; external perimeters extrusion width = 0.35mm (3.68mm^3/s)
; perimeters extrusion width = 0.35mm (4.30mm^3/s)
; infill extrusion width = 0.35mm (4.91mm^3/s)
; solid infill extrusion width = 0.35mm (3.07mm^3/s)
; top infill extrusion width = 0.35mm (2.46mm^3/s)
; support material extrusion width = 0.35mm (1.84mm^3/s)

M190 S108 ; set bed temperature and wait for it to be reached
; start of custom G-code
M108 S255 ; turn on M2 fans
M201 X400 Y400 Z400 ; reduce max accel to reduce ringing
G28 ; home all axes
G1 Y50 Z0.3 F9600 ; move forward to avoid clips
G1 X205 Z 10 ; move off platform
M109 S 250 ; wait for hotend to reach temp
G1 Z0.4; position nozzle
G92 E0; zero extruder
G1 F225 E25 ; extrude
G92 E0 ; zero extruder
G1 X190 Z0.1 E1.0 F1200 ; slow wipe
G1 X180 Z0.25 ; lift
; end of custom G-code
; Filament gcode

G21 ; set units to millimeters
G90 ; use absolute coordinates
M82 ; use absolute distances for extrusion
G92 E0
G1 Z0.350 F6000.000
G1 E-1.00000 F1200.00000
G92 E0
G1 X29.455 Y24.011 F6000.000
G1 E1.10000 F1200.00000
M201 X500 Y500
M204 P500 T500
G1 F1500
G1 X31.622 Y22.205 E1.40211
G1 X34.208 Y21.076 E1.70422
G1 X36.841 Y20.714 E1.98880
G1 X112.389 Y20.455 E10.07870
G1 X162.023 Y20.455 E15.39368
G1 X164.816 Y20.853 E15.69579
G1 X167.387 Y22.015 E15.99789
G1 X169.530 Y23.849 E16.30000
G1 X171.110 Y26.281 E16.61053
G1 X183.136 Y52.469 E19.69632
G1 X184.042 Y56.296 E20.11746
G1 X187.144 Y145.861 E29.71411
G1 X186.843 Y148.666 E30.01622
G1 X185.771 Y151.275 E30.31833
G1 X184.222 Y153.278 E30.58941
G1 X109.895 Y227.604 E41.84521
G1 X107.639 Y229.297 E42.14732
G1 X104.999 Y230.293 E42.44943
G1 X102.971 Y230.532 E42.66811
G1 X25.246 Y231.670 E50.99201
G1 X22.448 Y231.313 E51.29412
G1 X19.860 Y230.189 E51.59623
G1 X17.690 Y228.386 E51.89834
G1 X16.109 Y226.049 E52.20045
G1 X15.245 Y223.364 E52.50256
G1 X15.101 Y221.774 E52.67347
G1 X14.176 Y131.329 E62.35907
G1 X14.176 Y56.901 E70.32908
G1 X14.574 Y54.108 E70.63119
G1 X15.178 Y52.537 E70.81136
G1 X27.878 Y26.350 E73.92794
G1 X29.426 Y24.054 E74.22443
G1 X30.123 Y24.465 F6000.000
G1 F1500
G1 X32.233 Y22.771 E74.51414
G1 X34.744 Y21.764 E74.80385
G1 X36.844 Y21.514 E75.03027
G1 X112.391 Y21.255 E83.12017
G1 X162.023 Y21.255 E88.43485
G1 X164.699 Y21.653 E88.72456
G1 X167.144 Y22.812 E89.01427
G1 X169.145 Y24.632 E89.30398
G1 X170.383 Y26.615 E89.55433
G1 X182.409 Y52.802 E92.64011
G1 X183.243 Y56.323 E93.02756
G1 X186.345 Y145.889 E102.62422
G1 X186.040 Y148.577 E102.91393
G1 X184.966 Y151.060 E103.20364
G1 X183.656 Y152.712 E103.42942
G1 X109.330 Y227.038 E114.68523
G1 X107.156 Y228.649 E114.97494
G1 X104.608 Y229.558 E115.26465
G1 X102.960 Y229.732 E115.44216
G1 X25.235 Y230.870 E123.76606
G1 X22.553 Y230.512 E124.05577
G1 X20.092 Y229.389 E124.34548
G1 X18.063 Y227.598 E124.63519
G1 X16.644 Y225.295 E124.92490
G1 X15.901 Y221.766 E125.31110
G1 X14.976 Y131.321 E134.99670
G1 X14.976 Y56.901 E142.96583
G1 X15.373 Y54.225 E143.25554
G1 X15.898 Y52.886 E143.40945
G1 X28.598 Y26.699 E146.52603
G1 X30.094 Y24.508 E146.81012
G1 X30.790 Y24.924 F6000.000
G1 F1500
G1 X32.838 Y23.348 E147.08688
G1 X35.268 Y22.469 E147.36364
G1 X36.846 Y22.314 E147.53344
G1 X112.394 Y22.055 E155.62334
G1 X162.023 Y22.055 E160.93773
G1 X164.577 Y22.452 E161.21448
G1 X166.889 Y23.608 E161.49124
G1 X168.740 Y25.411 E161.76800
G1 X169.656 Y26.949 E161.95970
G1 X181.682 Y53.136 E165.04548
G1 X182.444 Y56.351 E165.39925
G1 X185.546 Y145.916 E174.99590
G1 X185.237 Y148.482 E175.27266
G1 X184.162 Y150.833 E175.54942
G1 X183.090 Y152.147 E175.73096
G1 X108.764 Y226.473 E186.98676
G1 X106.677 Y227.997 E187.26352
G1 X102.948 Y228.932 E187.67524
G1 X25.223 Y230.071 E195.99914
G1 X22.664 Y229.710 E196.27590
G1 X20.335 Y228.589 E196.55265
G1 X18.457 Y226.813 E196.82941
G1 X17.209 Y224.550 E197.10617
G1 X16.701 Y221.758 E197.41011
G1 X15.776 Y131.313 E207.09571
G1 X15.776 Y56.901 E215.06396
G1 X16.617 Y53.235 E215.46667
G1 X29.317 Y27.048 E218.58326
G1 X30.760 Y24.967 E218.85440
G1 X31.453 Y25.388 F6000.000
G1 F1500
G1 X33.436 Y23.936 E219.11756
G1 X36.849 Y23.114 E219.49354
G1 X112.397 Y22.855 E227.58344
G1 X162.023 Y22.855 E232.89754
G1 X164.448 Y23.252 E233.16071
G1 X166.620 Y24.402 E233.42387
G1 X168.311 Y26.186 E233.68704
G1 X168.929 Y27.283 E233.82188
G1 X180.955 Y53.470 E236.90766
G1 X181.644 Y56.379 E237.22774
G1 X184.746 Y145.944 E246.82439
G1 X184.433 Y148.382 E247.08756
G1 X183.358 Y150.592 E247.35073
G1 X182.525 Y151.581 E247.48924
G1 X108.199 Y225.907 E258.74504
G1 X106.203 Y227.341 E259.00821
G1 X102.936 Y228.132 E259.36813
G1 X25.211 Y229.271 E267.69203
G1 X22.780 Y228.909 E267.95520
G1 X20.592 Y227.790 E268.21836
G1 X18.875 Y226.032 E268.48153
G1 X17.809 Y223.817 E268.74470
G1 X17.500 Y221.749 E268.96860
G1 X16.576 Y131.305 E278.65420
G1 X16.575 Y56.901 E286.62158
G1 X17.337 Y53.584 E286.98594
G1 X30.037 Y27.397 E290.10253
G1 X31.423 Y25.431 E290.36007
G1 X32.113 Y25.859 F6000.000
G1 F1500
G1 X34.026 Y24.539 E290.60891
G1 X36.852 Y23.913 E290.91888
G1 X112.400 Y23.655 E299.00878
G1 X162.023 Y23.654 E304.32258
G1 X164.312 Y24.052 E304.57142
G1 X166.335 Y25.196 E304.82025
G1 X168.202 Y27.617 E305.14761
G1 X180.228 Y53.804 E308.23339
G1 X180.845 Y56.406 E308.51978
G1 X183.947 Y145.972 E318.11644
G1 X183.629 Y148.274 E318.36527
G1 X181.959 Y151.015 E318.70903
G1 X107.633 Y225.341 E329.96483
G1 X105.733 Y226.680 E330.21367
G1 X102.924 Y227.332 E330.52247
G1 X25.199 Y228.471 E338.84637
G1 X22.904 Y228.107 E339.09521
G1 X20.865 Y226.992 E339.34404
G1 X19.321 Y225.256 E339.59288
G1 X18.452 Y223.101 E339.84172
G1 X18.300 Y221.741 E339.98822
G1 X17.376 Y131.296 E349.67382
G1 X17.375 Y56.901 E357.64032
G1 X18.057 Y53.934 E357.96633
G1 X30.757 Y27.746 E361.08292
G1 X32.083 Y25.902 E361.32613
G1 E360.32613 F1200.00000
G92 E0
G1 X32.476 Y129.669 F6000.000
G1 E1.10000 F1200.00000
G1 F1500
G1 X25.294 Y136.851 E2.26553
G1 X19.407 Y134.413 E2.99666
G1 X19.407 Y54.926 E12.11759
G1 X22.200 Y52.133 E12.57083
G1 X31.844 Y52.133 E13.67739
G1 X32.107 Y51.869 E13.72017
G1 X32.107 Y28.738 E16.37437
G1 X34.900 Y25.945 E16.82761
G1 X88.450 Y25.945 E22.97232
G1 X91.243 Y28.738 E23.42557
G1 X91.243 Y51.869 E26.07976
G1 X91.507 Y52.133 E26.12254
G1 X97.392 Y52.133 E26.79786
G1 X97.557 Y52.064 E26.81840
G1 X97.748 Y51.874 E26.84931
G1 X107.391 Y51.874 E27.95586
G1 X107.655 Y51.610 E27.99864
G1 X107.655 Y28.479 E30.65284
G1 X110.448 Y25.686 E31.10608
G1 X163.998 Y25.686 E37.25079
G1 X166.791 Y28.479 E37.70404
G1 X166.791 Y51.610 E40.35824
G1 X167.054 Y51.874 E40.40101
G1 X177.235 Y51.874 E41.56919
G1 X179.673 Y57.760 E42.30033
G1 X122.738 Y114.696 E51.53969
G1 X122.968 Y115.252 E51.60870
G1 X167.100 Y115.252 E56.67274
G1 X169.893 Y118.045 E57.12598
G1 X169.893 Y141.175 E59.78018
G1 X170.156 Y141.439 E59.82296
G1 X180.337 Y141.439 E60.99114
G1 X182.775 Y147.326 E61.72227
G1 X103.944 Y226.157 E74.51487
G1 X98.057 Y223.719 E75.24600
G1 X98.057 Y156.243 E82.98866
G1 X97.501 Y156.013 E83.05767
G1 X26.219 Y227.296 E94.62524
G1 X20.332 Y224.858 E95.35638
G1 X20.332 Y145.371 E104.47730
G1 X23.125 Y142.578 E104.93055
G1 X32.768 Y142.578 E106.03710
G1 X33.032 Y142.314 E106.07988
G1 X33.032 Y129.899 E107.50449
G1 X32.525 Y129.689 E107.56747
G1 E106.56747 F1200.00000
G92 E0
G1 X35.800 Y124.234 F6000.000
G1 X33.333 Y127.599 F6000.000
G1 E1.10000 F1200.00000
G1 F1500
G1 X25.093 Y135.840 E2.43726
G1 X20.264 Y133.840 E3.03696
G1 X20.264 Y55.281 E12.05143
G1 X22.555 Y52.990 E12.42319
G1 X32.701 Y52.990 E13.58736
G1 X32.964 Y52.726 E13.63014
G1 X32.964 Y29.093 E16.34195
G1 X35.255 Y26.802 E16.71371
G1 X88.095 Y26.802 E22.77695
G1 X90.386 Y29.093 E23.14871
G1 X90.386 Y52.726 E25.86053
G1 X90.650 Y52.990 E25.90330
G1 X97.747 Y52.990 E26.71771
G1 X97.912 Y52.921 E26.73826
G1 X98.103 Y52.731 E26.76916
G1 X108.248 Y52.731 E27.93333
G1 X108.512 Y52.467 E27.97611
G1 X108.512 Y28.834 E30.68792
G1 X110.803 Y26.544 E31.05968
G1 X163.643 Y26.544 E37.12292
G1 X165.934 Y28.834 E37.49468
G1 X165.934 Y52.467 E40.20650
G1 X166.197 Y52.731 E40.24927
G1 X176.662 Y52.731 E41.45009
G1 X178.662 Y57.559 E42.04979
G1 X120.668 Y115.553 E51.46088
G1 X120.898 Y116.109 E51.52989
G1 X166.745 Y116.109 E56.79064
G1 X169.036 Y118.400 E57.16240
G1 X169.036 Y142.033 E59.87421
G1 X169.299 Y142.296 E59.91699
G1 X179.764 Y142.296 E61.11781
G1 X181.764 Y147.125 E61.71751
G1 X103.742 Y225.146 E74.37866
G1 X98.914 Y223.146 E74.97836
G1 X98.914 Y154.174 E82.89275
G1 X98.358 Y153.944 E82.96176
G1 X26.017 Y226.285 E94.70106
G1 X21.189 Y224.285 E95.30076
G1 X21.189 Y145.726 E104.31523
G1 X23.480 Y143.435 E104.68699
G1 X33.625 Y143.435 E105.85116
G1 X33.889 Y143.171 E105.89394
G1 X33.889 Y127.830 E107.65435
G1 X33.382 Y127.620 E107.71733
G1 E106.71733 F1200.00000
G92 E0
G1 X34.191 Y125.530 F6000.000
G1 E1.10000 F1200.00000
G1 F1500
G1 X24.892 Y134.829 E2.60899
G1 X21.122 Y133.267 E3.07725
G1 X21.122 Y55.636 E11.98526
G1 X22.910 Y53.847 E12.27555
G1 X33.558 Y53.847 E13.49733
G1 X33.822 Y53.583 E13.54011
G1 X33.822 Y29.448 E16.30954
G1 X35.610 Y27.660 E16.59982
G1 X87.740 Y27.660 E22.58157
G1 X89.529 Y29.448 E22.87186
G1 X89.529 Y53.583 E25.64129
G1 X89.793 Y53.847 E25.68406
G1 X98.102 Y53.847 E26.63757
G1 X98.267 Y53.779 E26.65811
G1 X98.458 Y53.588 E26.68902
G1 X109.106 Y53.588 E27.91080
G1 X109.369 Y53.324 E27.95358
G1 X109.369 Y29.189 E30.72301
G1 X111.158 Y27.401 E31.01329
G1 X163.288 Y27.401 E36.99505
G1 X165.077 Y29.189 E37.28533
G1 X165.077 Y53.324 E40.05476
G1 X165.340 Y53.588 E40.09753
G1 X176.089 Y53.588 E41.33099
G1 X177.651 Y57.358 E41.79925
G1 X118.599 Y116.410 E51.38208
G1 X118.829 Y116.966 E51.45108
G1 X166.390 Y116.966 E56.90854
G1 X168.178 Y118.755 E57.19882
G1 X168.178 Y142.890 E59.96825
G1 X168.442 Y143.153 E60.01103
G1 X179.191 Y143.153 E61.24448
G1 X180.753 Y146.924 E61.71274
G1 X103.541 Y224.135 E74.24246
G1 X99.771 Y222.574 E74.71072
G1 X99.771 Y152.105 E82.79684
G1 X99.216 Y151.875 E82.86585
G1 X25.816 Y225.274 E94.77688
G1 X22.046 Y223.712 E95.24514
G1 X22.046 Y146.081 E104.15316
G1 X23.835 Y144.292 E104.44344
G1 X34.483 Y144.292 E105.66522
G1 X34.746 Y144.028 E105.70800
G1 X34.746 Y125.760 E107.80422
G1 X34.239 Y125.550 E107.86720
G1 E106.86720 F1200.00000
G92 E0
G1 X35.800 Y124.234 F6000.000
G1 X35.048 Y123.461 F6000.000
G1 E1.10000 F1200.00000
G1 F1500
G1 X24.691 Y133.818 E2.78072
G1 X21.979 Y132.695 E3.11755
G1 X21.979 Y55.991 E11.91910
G1 X23.265 Y54.704 E12.12790
G1 X34.415 Y54.704 E13.40730
G1 X34.679 Y54.441 E13.45008
G1 X34.679 Y29.803 E16.27712
G1 X35.965 Y28.517 E16.48592
G1 X87.385 Y28.517 E22.38620
G1 X88.672 Y29.803 E22.59500
G1 X88.672 Y54.441 E25.42205
G1 X88.935 Y54.704 E25.46482
G1 X98.457 Y54.704 E26.55742
G1 X98.623 Y54.636 E26.57797
G1 X98.813 Y54.445 E26.60887
G1 X109.963 Y54.445 E27.88827
G1 X110.226 Y54.182 E27.93105
G1 X110.226 Y29.545 E30.75809
G1 X111.513 Y28.258 E30.96689
G1 X162.933 Y28.258 E36.86717
G1 X164.219 Y29.545 E37.07597
G1 X164.219 Y54.182 E39.90302
G1 X164.483 Y54.445 E39.94579
G1 X175.517 Y54.445 E41.21188
G1 X176.640 Y57.157 E41.54871
G1 X116.530 Y117.268 E51.30327
G1 X116.760 Y117.823 E51.37227
G1 X166.035 Y117.823 E57.02644
G1 X167.321 Y119.110 E57.23524
G1 X167.321 Y143.747 E60.06229
G1 X167.585 Y144.011 E60.10506
G1 X178.619 Y144.011 E61.37115
G1 X179.742 Y146.722 E61.70798
G1 X103.340 Y223.124 E74.10626
G1 X100.628 Y222.001 E74.44308
G1 X100.628 Y150.035 E82.70093
G1 X100.073 Y149.805 E82.76994
G1 X25.615 Y224.263 E94.85270
G1 X22.903 Y223.139 E95.18953
G1 X22.903 Y146.436 E103.99108
G1 X24.190 Y145.149 E104.19989
G1 X35.340 Y145.149 E105.47928
G1 X35.603 Y144.886 E105.52206
G1 X35.603 Y123.691 E107.95409
G1 X35.096 Y123.481 E108.01707
G1 E107.01707 F1200.00000
G92 E0
G1 X35.800 Y124.234 F6000.000
G1 X35.905 Y121.391 F6000.000
G1 E1.10000 F1200.00000
G1 F1500
G1 X24.489 Y132.807 E2.95245
G1 X22.836 Y132.122 E3.15784
G1 X22.836 Y56.346 E11.85293
G1 X23.620 Y55.561 E11.98026
G1 X35.272 Y55.561 E13.31727
G1 X35.536 Y55.298 E13.36005
G1 X35.536 Y30.159 E16.24471
G1 X36.320 Y29.374 E16.37203
G1 X87.030 Y29.374 E22.19083
G1 X87.815 Y30.159 E22.31815
G1 X87.815 Y55.298 E25.20281
G1 X88.078 Y55.561 E25.24558
G1 X98.812 Y55.561 E26.47728
G1 X98.978 Y55.493 E26.49782
G1 X99.168 Y55.302 E26.52873
G1 X110.820 Y55.302 E27.86574
G1 X111.083 Y55.039 E27.90852
G1 X111.083 Y29.900 E30.79318
G1 X111.868 Y29.115 E30.92050
G1 X162.578 Y29.115 E36.73930
G1 X163.362 Y29.900 E36.86662
G1 X163.362 Y55.039 E39.75128
G1 X163.626 Y55.302 E39.79406
G1 X174.944 Y55.302 E41.09278
G1 X175.629 Y56.956 E41.29817
G1 X114.460 Y118.125 E51.22446
G1 X114.690 Y118.680 E51.29346
G1 X165.680 Y118.680 E57.14434
G1 X166.464 Y119.465 E57.27166
G1 X166.464 Y144.604 E60.15632
G1 X166.728 Y144.868 E60.19910
G1 X178.046 Y144.868 E61.49782
G1 X178.731 Y146.521 E61.70321
G1 X103.139 Y222.113 E73.97006
G1 X101.485 Y221.428 E74.17544
G1 X101.485 Y147.966 E82.60503
G1 X100.930 Y147.736 E82.67403
G1 X25.414 Y223.252 E94.92853
G1 X23.760 Y222.567 E95.13391
G1 X23.760 Y146.791 E103.82901
G1 X24.545 Y146.006 E103.95633
G1 X36.197 Y146.006 E105.29335
G1 X36.460 Y145.743 E105.33612
G1 X36.460 Y121.622 E108.10395
G1 X35.953 Y121.412 E108.16693
G1 E107.16693 F1200.00000
G92 E0
G1 X21.638 Y145.346 F6000.000
G1 X21.638 Y226.013 F6000.000
G1 X23.100 Y227.475 F6000.000
G1 X23.514 Y227.475 F6000.000
G1 X102.343 Y220.855 F6000.000
G1 E1.10000 F1200.00000
G1 F1500
G1 X102.343 Y146.007 E9.68864
G1 X102.625 Y145.725 E9.73448
G1 X114.779 Y145.725 E11.12911
G1 X115.043 Y145.461 E11.17188
G1 X115.043 Y119.820 E14.11416
G1 X115.325 Y119.537 E14.16000
G1 X165.325 Y119.537 E19.89732
G1 X165.607 Y119.820 E19.94316
G1 X165.607 Y145.461 E22.88543
G1 X165.871 Y145.725 E22.92821
G1 X177.473 Y145.725 E24.25957
G1 X177.720 Y146.320 E24.33352
G1 X102.938 Y221.102 E36.46893
G1 X102.391 Y220.876 E36.53686
G1 E35.53686 F1200.00000
G92 E0
G1 X100.825 Y227.165 F6000.000
G1 X97.723 Y137.599 F6000.000
G1 X99.241 Y57.629 F6000.000
G1 E1.10000 F1200.00000
G1 F1500
G1 X98.685 Y57.399 E1.16900
G1 X24.288 Y131.796 E13.24189
G1 X23.693 Y131.549 E13.31585
G1 X23.693 Y56.701 E21.90448
G1 X23.975 Y56.418 E21.95032
G1 X36.129 Y56.418 E23.34495
G1 X36.393 Y56.155 E23.38773
G1 X36.393 Y30.514 E26.33000
G1 X36.675 Y30.231 E26.37585
G1 X86.675 Y30.231 E32.11316
G1 X86.957 Y30.514 E32.15901
G1 X86.957 Y56.155 E35.10128
G1 X87.221 Y56.418 E35.14406
G1 X99.167 Y56.418 E36.51485
G1 X99.333 Y56.350 E36.53539
G1 X99.523 Y56.159 E36.56629
G1 X111.677 Y56.159 E37.96092
G1 X111.941 Y55.896 E38.00370
G1 X111.941 Y30.255 E40.94597
G1 X112.223 Y29.972 E40.99182
G1 X162.223 Y29.972 E46.72913
G1 X162.505 Y30.255 E46.77498
G1 X162.505 Y55.896 E49.71725
G1 X162.769 Y56.159 E49.76003
G1 X174.371 Y56.159 E51.09139
G1 X174.618 Y56.755 E51.16534
G1 X99.836 Y131.537 E63.30075
G1 X99.241 Y131.290 E63.37470
G1 X99.241 Y57.682 E71.82108
G1 E70.82108 F1200.00000
G92 E0
G1 X97.723 Y137.599 F6000.000
G1 X98.383 Y131.863 F6000.000
G1 E1.10000 F1200.00000
G1 F1500
G1 X100.037 Y132.548 E1.30539
G1 X113.630 Y118.955 E3.51118
G1 X114.185 Y119.185 E3.58018
G1 X114.185 Y144.604 E6.49692
G1 X113.922 Y144.868 E6.53970
G1 X102.270 Y144.868 E7.87671
G1 X101.485 Y145.652 E8.00404
G1 X101.485 Y146.925 E8.15003
G1 X100.761 Y147.069 E8.23478
G1 X100.321 Y146.006 E8.36673
G1 X89.003 Y146.006 E9.66545
G1 X88.739 Y145.743 E9.70823
G1 X88.739 Y120.603 E12.59289
G1 X87.955 Y119.819 E12.72021
G1 X38.263 Y119.819 E18.42218
G1 X38.033 Y119.263 E18.49118
G1 X97.828 Y59.468 E28.19453
G1 X98.383 Y59.699 E28.26354
G1 X98.383 Y131.810 E36.53818
