; generated by Slic3r 1.3.0 on 2020-01-29 at 04:46:00

; external perimeters extrusion width = 0.35mm (3.68mm^3/s)
; perimeters extrusion width = 0.35mm (4.30mm^3/s)
; infill extrusion width = 0.35mm (4.91mm^3/s)
; solid infill extrusion width = 0.35mm (3.07mm^3/s)
; top infill extrusion width = 0.35mm (2.46mm^3/s)

M107
M190 S108 ; set bed temperature and wait for it to be reached
; start of custom G-code
M108 S255 ; turn on M2 fans
M201 X400 Y400 Z400 ; reduce max accel to reduce ringing
G28 ; home all axes
G1 Y50 Z0.3 F9600 ; move forward to avoid clips
G1 X205 Z 10 ; move off platform
M109 S 250 ; wait for hotend to reach temp
G1 Z0.4; position nozzle
G92 E0; zero extruder
G1 F225 E25 ; extrude
G92 E0 ; zero extruder
G1 X190 Z0.1 E1.0 F1200 ; slow wipe
G1 X180 Z0.25 ; lift
; end of custom G-code
; Filament gcode

G21 ; set units to millimeters
G90 ; use absolute coordinates
M82 ; use absolute distances for extrusion
G92 E0
G1 Z0.350 F6000.000
G1 E-1.00000 F1200.00000
G92 E0
G1 X89.937 Y113.536 F6000.000
G1 E1.10000 F1200.00000
M201 X500 Y500
M204 P500 T500
G1 F1500
G1 X91.948 Y112.039 E1.35975
G1 X93.304 Y111.256 E1.52193
G1 X95.658 Y110.233 E1.78783
G1 X97.216 Y109.767 E1.95621
G1 X99.685 Y109.331 E2.21594
G1 X101.308 Y109.237 E2.38434
G1 X103.811 Y109.382 E2.64406
G1 X105.411 Y109.665 E2.81244
G1 X107.813 Y110.384 E3.07217
G1 X109.306 Y111.028 E3.24054
G1 X111.477 Y112.281 E3.50029
G1 X112.781 Y113.252 E3.66866
G1 X114.605 Y114.973 E3.92841
G1 X115.611 Y116.172 E4.09057
G1 X117.027 Y118.313 E4.35648
G1 X117.757 Y119.765 E4.52485
G1 X118.614 Y122.121 E4.78460
G1 X118.989 Y123.703 E4.95296
G1 X119.262 Y125.565 E5.14796
G1 X119.309 Y126.378 E5.23230
G1 X119.309 Y127.634 E5.36239
G1 X119.262 Y128.446 E5.44671
G1 X118.989 Y130.309 E5.64172
G1 X118.614 Y131.891 E5.81009
G1 X117.757 Y134.247 E6.06983
G1 X117.027 Y135.699 E6.23822
G1 X115.649 Y137.794 E6.49795
G1 X114.643 Y138.993 E6.66011
G1 X112.781 Y140.760 E6.92603
G1 X111.477 Y141.730 E7.09439
G1 X109.306 Y142.984 E7.35414
G1 X107.813 Y143.628 E7.52251
G1 X105.411 Y144.347 E7.78226
G1 X103.811 Y144.629 E7.95062
G1 X101.307 Y144.775 E8.21038
G1 X99.685 Y144.681 E8.37874
G1 X97.215 Y144.245 E8.63849
G1 X95.658 Y143.779 E8.80688
G1 X93.356 Y142.786 E9.06661
G1 X91.948 Y141.973 E9.23497
G1 X89.937 Y140.476 E9.49472
G1 X88.755 Y139.360 E9.66310
G1 X87.143 Y137.440 E9.92284
G1 X86.250 Y136.082 E10.09121
G1 X85.125 Y133.841 E10.35095
G1 X84.569 Y132.314 E10.51932
G1 X83.991 Y129.874 E10.77907
G1 X83.802 Y128.259 E10.94746
G1 X83.802 Y125.752 E11.20719
G1 X83.991 Y124.138 E11.37555
G1 X84.569 Y121.698 E11.63530
G1 X85.125 Y120.171 E11.80369
G1 X86.250 Y117.930 E12.06342
G1 X87.143 Y116.572 E12.23180
G1 X88.755 Y114.651 E12.49154
G1 X89.899 Y113.572 E12.65446
G1 X90.486 Y114.118 F6000.000
G1 F1500
G1 X92.348 Y112.731 E12.89497
G1 X93.756 Y111.919 E13.06335
G1 X95.888 Y110.999 E13.30385
G1 X97.445 Y110.533 E13.47223
G1 X99.731 Y110.130 E13.71273
G1 X101.354 Y110.035 E13.88112
G1 X103.672 Y110.170 E14.12160
G1 X105.272 Y110.452 E14.28999
G1 X107.496 Y111.118 E14.53048
G1 X108.934 Y111.738 E14.69265
G1 X111.000 Y112.923 E14.93932
G1 X112.303 Y113.893 E15.10769
G1 X113.992 Y115.487 E15.34820
G1 X115.037 Y116.732 E15.51656
G1 X116.313 Y118.672 E15.75707
G1 X117.042 Y120.124 E15.92544
G1 X117.836 Y122.306 E16.16595
G1 X118.211 Y123.887 E16.33431
G1 X118.463 Y125.612 E16.51487
G1 X118.511 Y126.424 E16.59920
G1 X118.511 Y127.587 E16.71966
G1 X118.463 Y128.400 E16.80399
G1 X118.211 Y130.125 E16.98455
G1 X117.836 Y131.706 E17.15292
G1 X117.042 Y133.888 E17.39342
G1 X116.312 Y135.340 E17.56180
G1 X115.037 Y137.280 E17.80230
G1 X114.030 Y138.479 E17.96446
G1 X112.303 Y140.118 E18.21114
G1 X111.000 Y141.089 E18.37950
G1 X108.989 Y142.250 E18.62001
G1 X107.496 Y142.893 E18.78838
G1 X105.272 Y143.559 E19.02889
G1 X103.672 Y143.842 E19.19726
G1 X101.354 Y143.977 E19.43777
G1 X99.731 Y143.882 E19.60614
G1 X97.445 Y143.479 E19.84665
G1 X95.888 Y143.013 E20.01503
G1 X93.756 Y142.093 E20.25552
G1 X92.348 Y141.281 E20.42389
G1 X90.486 Y139.894 E20.66440
G1 X89.304 Y138.779 E20.83278
G1 X87.812 Y137.000 E21.07328
G1 X86.918 Y135.642 E21.24164
G1 X85.876 Y133.567 E21.48215
G1 X85.321 Y132.040 E21.65052
G1 X84.785 Y129.781 E21.89103
G1 X84.596 Y128.167 E22.05942
G1 X84.596 Y125.845 E22.29991
G1 X84.785 Y124.231 E22.46827
G1 X85.321 Y121.972 E22.70878
G1 X85.876 Y120.444 E22.87717
G1 X86.918 Y118.369 E23.11766
G1 X87.812 Y117.011 E23.28604
G1 X89.304 Y115.233 E23.52654
G1 X90.448 Y114.154 E23.68947
G1 X91.035 Y114.699 F6000.000
G1 F1500
G1 X92.748 Y113.424 E23.91074
G1 X94.104 Y112.641 E24.07290
G1 X96.117 Y111.765 E24.30033
G1 X97.674 Y111.299 E24.46871
G1 X99.778 Y110.928 E24.68997
G1 X101.401 Y110.834 E24.85836
G1 X103.533 Y110.958 E25.07961
G1 X105.133 Y111.240 E25.24799
G1 X107.180 Y111.853 E25.46925
G1 X108.617 Y112.473 E25.63141
G1 X110.522 Y113.565 E25.85884
G1 X111.826 Y114.535 E26.02721
G1 X113.379 Y116.001 E26.24848
G1 X114.424 Y117.246 E26.41685
G1 X115.598 Y119.031 E26.63812
G1 X116.327 Y120.483 E26.80649
G1 X117.058 Y122.490 E27.02776
G1 X117.433 Y124.072 E27.19612
G1 X117.665 Y125.658 E27.36223
G1 X117.712 Y126.471 E27.44657
G1 X117.712 Y127.541 E27.55739
G1 X117.665 Y128.353 E27.64171
G1 X117.433 Y129.940 E27.80783
G1 X117.058 Y131.522 E27.97620
G1 X116.327 Y133.529 E28.19747
G1 X115.598 Y134.981 E28.36585
G1 X114.424 Y136.766 E28.58711
G1 X113.418 Y137.965 E28.74927
G1 X111.826 Y139.477 E28.97670
G1 X110.522 Y140.447 E29.14507
G1 X108.672 Y141.515 E29.36634
G1 X107.180 Y142.159 E29.53471
G1 X105.133 Y142.772 E29.75598
G1 X103.533 Y143.054 E29.92435
G1 X101.400 Y143.178 E30.14562
G1 X99.778 Y143.084 E30.31398
G1 X97.674 Y142.713 E30.53526
G1 X96.117 Y142.246 E30.70364
G1 X94.156 Y141.400 E30.92489
G1 X92.748 Y140.588 E31.09326
G1 X91.035 Y139.312 E31.31453
G1 X89.853 Y138.197 E31.48291
G1 X88.480 Y136.561 E31.70417
G1 X87.587 Y135.203 E31.87253
G1 X86.628 Y133.294 E32.09380
G1 X86.072 Y131.767 E32.26217
G1 X85.580 Y129.688 E32.48344
G1 X85.391 Y128.074 E32.65183
G1 X85.391 Y125.938 E32.87308
G1 X85.580 Y124.324 E33.04145
G1 X86.072 Y122.245 E33.26272
G1 X86.628 Y120.718 E33.43110
G1 X87.587 Y118.809 E33.65236
G1 X88.480 Y117.451 E33.82074
G1 X89.853 Y115.815 E34.04199
G1 X90.997 Y114.736 E34.20492
G1 X91.584 Y115.281 F6000.000
G1 F1500
G1 X93.148 Y114.117 E34.40695
G1 X94.504 Y113.334 E34.56913
G1 X96.347 Y112.532 E34.77731
G1 X97.904 Y112.065 E34.94569
G1 X99.824 Y111.727 E35.14771
G1 X101.447 Y111.632 E35.31610
G1 X103.394 Y111.746 E35.51811
G1 X104.995 Y112.028 E35.68649
G1 X106.863 Y112.587 E35.88851
G1 X108.300 Y113.207 E36.05067
G1 X110.044 Y114.206 E36.25886
G1 X111.348 Y115.177 E36.42723
G1 X112.766 Y116.515 E36.62926
G1 X113.811 Y117.760 E36.79763
G1 X114.883 Y119.390 E36.99966
G1 X115.612 Y120.842 E37.16803
G1 X116.279 Y122.675 E37.37006
G1 X116.654 Y124.256 E37.53843
G1 X116.866 Y125.705 E37.69009
G1 X116.914 Y126.517 E37.77443
G1 X116.914 Y127.494 E37.87561
G1 X116.866 Y128.307 E37.95994
G1 X116.654 Y129.756 E38.11161
G1 X116.279 Y131.337 E38.27998
G1 X115.612 Y133.170 E38.48201
G1 X114.883 Y134.622 E38.65039
G1 X113.811 Y136.252 E38.85241
G1 X112.805 Y137.451 E39.01457
G1 X111.348 Y138.835 E39.22277
G1 X110.044 Y139.806 E39.39113
G1 X108.355 Y140.781 E39.59317
G1 X106.863 Y141.425 E39.76153
G1 X104.994 Y141.984 E39.96356
G1 X103.394 Y142.266 E40.13193
G1 X101.447 Y142.379 E40.33396
G1 X99.824 Y142.285 E40.50233
G1 X97.904 Y141.946 E40.70436
G1 X96.404 Y141.497 E40.86654
G1 X94.556 Y140.708 E41.07472
G1 X93.148 Y139.895 E41.24308
G1 X91.584 Y138.730 E41.44512
G1 X90.402 Y137.615 E41.61349
G1 X89.148 Y136.121 E41.81552
G1 X88.255 Y134.763 E41.98388
G1 X87.380 Y133.020 E42.18591
G1 X86.824 Y131.493 E42.35428
G1 X86.374 Y129.595 E42.55631
G1 X86.185 Y127.981 E42.72470
G1 X86.185 Y126.031 E42.92671
G1 X86.374 Y124.416 E43.09508
G1 X86.824 Y122.519 E43.29711
G1 X87.380 Y120.991 E43.46549
G1 X88.255 Y119.249 E43.66751
G1 X89.148 Y117.891 E43.83589
G1 X90.402 Y116.397 E44.03791
G1 X91.546 Y115.317 E44.20083
G1 X92.133 Y115.863 F6000.000
G1 F1500
G1 X93.548 Y114.809 E44.38363
G1 X94.956 Y113.997 E44.55200
G1 X96.576 Y113.298 E44.73479
G1 X98.133 Y112.832 E44.90316
G1 X99.871 Y112.525 E45.08594
G1 X101.494 Y112.431 E45.25433
G1 X103.255 Y112.533 E45.43710
G1 X104.856 Y112.816 E45.60548
G1 X106.546 Y113.322 E45.78826
G1 X107.983 Y113.942 E45.95043
G1 X109.567 Y114.848 E46.13938
G1 X110.870 Y115.818 E46.30775
G1 X112.154 Y117.029 E46.49054
G1 X113.198 Y118.274 E46.65891
G1 X114.168 Y119.749 E46.84170
G1 X114.898 Y121.201 E47.01007
G1 X115.501 Y122.859 E47.19286
G1 X115.876 Y124.441 E47.36123
G1 X116.068 Y125.751 E47.49845
G1 X116.115 Y126.564 E47.58278
G1 X116.115 Y127.448 E47.67433
G1 X116.068 Y128.260 E47.75866
G1 X115.876 Y129.571 E47.89589
G1 X115.501 Y131.153 E48.06426
G1 X114.898 Y132.811 E48.24705
G1 X114.168 Y134.263 E48.41542
G1 X113.198 Y135.737 E48.59821
G1 X112.192 Y136.937 E48.76037
G1 X110.870 Y138.193 E48.94933
G1 X109.567 Y139.164 E49.11769
G1 X108.038 Y140.046 E49.30049
G1 X106.546 Y140.690 E49.46885
G1 X104.856 Y141.196 E49.65164
G1 X103.255 Y141.478 E49.82001
G1 X101.493 Y141.581 E50.00280
G1 X99.871 Y141.486 E50.17117
G1 X98.133 Y141.180 E50.35396
G1 X96.576 Y140.714 E50.52234
G1 X94.956 Y140.015 E50.70512
G1 X93.548 Y139.202 E50.87349
G1 X92.133 Y138.149 E51.05628
G1 X90.951 Y137.033 E51.22466
G1 X89.816 Y135.682 E51.40744
G1 X88.923 Y134.324 E51.57581
G1 X88.131 Y132.747 E51.75860
G1 X87.575 Y131.219 E51.92697
G1 X87.169 Y129.502 E52.10976
G1 X86.980 Y127.888 E52.27814
G1 X86.980 Y126.124 E52.46092
G1 X87.169 Y124.509 E52.62928
G1 X87.575 Y122.792 E52.81208
G1 X88.131 Y121.265 E52.98046
G1 X88.923 Y119.688 E53.16324
G1 X89.816 Y118.330 E53.33161
G1 X90.951 Y116.978 E53.51440
G1 X92.095 Y115.899 E53.67732
G1 X92.682 Y116.445 F6000.000
G1 F1500
G1 X93.948 Y115.502 E53.84088
G1 X95.304 Y114.719 E54.00304
G1 X96.805 Y114.064 E54.17276
G1 X98.363 Y113.598 E54.34113
G1 X99.917 Y113.324 E54.50468
G1 X101.540 Y113.229 E54.67306
G1 X103.116 Y113.321 E54.83660
G1 X104.717 Y113.603 E55.00497
G1 X106.229 Y114.056 E55.16852
G1 X107.722 Y114.700 E55.33688
G1 X109.089 Y115.489 E55.50044
G1 X110.345 Y116.424 E55.66260
G1 X111.541 Y117.543 E55.83232
G1 X112.586 Y118.788 E56.00068
G1 X113.453 Y120.108 E56.16424
G1 X114.183 Y121.560 E56.33260
G1 X114.723 Y123.044 E56.49616
G1 X115.098 Y124.625 E56.66452
G1 X115.269 Y125.798 E56.78730
G1 X115.317 Y126.610 E56.87164
G1 X115.317 Y127.401 E56.95355
G1 X115.269 Y128.214 E57.03788
G1 X115.098 Y129.387 E57.16066
G1 X114.723 Y130.968 E57.32903
G1 X114.183 Y132.452 E57.49258
G1 X113.453 Y133.904 E57.66096
G1 X112.586 Y135.223 E57.82450
G1 X111.541 Y136.468 E57.99287
G1 X110.393 Y137.552 E58.15642
G1 X109.089 Y138.522 E58.32479
G1 X107.722 Y139.312 E58.48834
G1 X106.229 Y139.956 E58.65671
G1 X104.717 Y140.408 E58.82026
G1 X103.116 Y140.691 E58.98863
G1 X101.540 Y140.782 E59.15218
G1 X99.917 Y140.688 E59.32055
G1 X98.362 Y140.414 E59.48410
G1 X96.805 Y139.948 E59.65248
G1 X95.356 Y139.322 E59.81602
G1 X93.948 Y138.510 E59.98439
G1 X92.682 Y137.567 E60.14794
G1 X91.500 Y136.451 E60.31632
G1 X90.485 Y135.242 E60.47986
G1 X89.592 Y133.884 E60.64823
G1 X88.883 Y132.473 E60.81178
G1 X88.327 Y130.946 E60.98015
G1 X87.963 Y129.410 E61.14370
G1 X87.774 Y127.795 E61.31208
G1 X87.774 Y126.216 E61.47562
G1 X87.963 Y124.602 E61.64399
G1 X88.327 Y123.066 E61.80754
G1 X88.883 Y121.538 E61.97592
G1 X89.592 Y120.128 E62.13946
G1 X90.485 Y118.770 E62.30784
G1 X91.500 Y117.560 E62.47138
G1 X92.644 Y116.481 E62.63431
G1 E61.63431 F1200.00000
G92 E0
G1 X94.076 Y117.923 F6000.000
G1 E1.10000 F1200.00000
G1 F1500
G1 X94.278 Y117.732 E1.13083
G1 X94.724 Y117.401 E1.19248
G1 X96.612 Y116.310 E1.43456
G1 X97.122 Y116.090 E1.49621
G1 X99.211 Y115.465 E1.73828
G1 X99.758 Y115.368 E1.79993
G1 X101.935 Y115.242 E2.04201
G1 X102.490 Y115.274 E2.10365
G1 X104.637 Y115.653 E2.34573
G1 X105.169 Y115.812 E2.40738
G1 X107.172 Y116.676 E2.64945
G1 X107.653 Y116.953 E2.71110
G1 X109.131 Y118.054 E2.91570
G1 X109.402 Y118.256 E2.95317
G1 X109.806 Y118.637 E3.01482
G1 X111.208 Y120.307 E3.25689
G1 X111.513 Y120.771 E3.31855
G1 X112.492 Y122.720 E3.56062
G1 X112.682 Y123.242 E3.62227
G1 X113.168 Y125.296 E3.85662
G1 X113.229 Y125.708 E3.90284
G1 X113.296 Y126.867 E4.03172
G1 X113.296 Y127.145 E4.06253
G1 X113.229 Y128.304 E4.19138
G1 X113.168 Y128.716 E4.23760
G1 X112.682 Y130.770 E4.47195
G1 X112.492 Y131.292 E4.53360
G1 X111.513 Y133.240 E4.77568
G1 X111.208 Y133.704 E4.83733
G1 X109.806 Y135.375 E5.07940
G1 X109.402 Y135.756 E5.14105
G1 X107.653 Y137.058 E5.38312
G1 X107.172 Y137.336 E5.44477
G1 X105.169 Y138.200 E5.68684
G1 X104.637 Y138.359 E5.74850
G1 X102.490 Y138.738 E5.99056
G1 X101.935 Y138.770 E6.05222
G1 X99.758 Y138.643 E6.29429
G1 X99.211 Y138.547 E6.35594
G1 X97.122 Y137.921 E6.59802
G1 X96.612 Y137.701 E6.65967
G1 X94.724 Y136.611 E6.90174
G1 X94.278 Y136.279 E6.96339
G1 X92.692 Y134.783 E7.20547
G1 X92.335 Y134.357 E7.26712
G1 X91.137 Y132.535 E7.50919
G1 X90.887 Y132.039 E7.57084
G1 X90.142 Y129.990 E7.81291
G1 X90.013 Y129.450 E7.87456
G1 X89.799 Y127.619 E8.07917
G1 X89.760 Y127.283 E8.11664
G1 X89.760 Y126.728 E8.17829
G1 X90.013 Y124.562 E8.42036
G1 X90.142 Y124.022 E8.48201
G1 X90.887 Y121.973 E8.72409
G1 X91.137 Y121.476 E8.78574
G1 X92.335 Y119.654 E9.02781
G1 X92.692 Y119.229 E9.08946
G1 X94.038 Y117.959 E9.29488
G1 X94.664 Y118.546 F6000.000
G1 F1500
G1 X94.830 Y118.390 E9.32016
G1 X95.195 Y118.118 E9.37073
G1 X96.998 Y117.078 E9.60172
G1 X97.416 Y116.897 E9.65229
G1 X99.409 Y116.300 E9.88328
G1 X99.858 Y116.221 E9.93385
G1 X101.935 Y116.100 E10.16484
G1 X102.390 Y116.127 E10.21540
G1 X104.439 Y116.488 E10.44639
G1 X104.876 Y116.619 E10.49696
G1 X106.786 Y117.443 E10.72795
G1 X107.181 Y117.671 E10.77851
G1 X108.619 Y118.742 E10.97757
G1 X108.850 Y118.913 E11.00950
G1 X109.181 Y119.226 E11.06007
G1 X110.519 Y120.820 E11.29106
G1 X110.769 Y121.201 E11.34163
G1 X111.703 Y123.060 E11.57261
G1 X111.859 Y123.488 E11.62318
G1 X112.326 Y125.457 E11.84784
G1 X112.375 Y125.795 E11.88575
G1 X112.439 Y127.120 E12.03294
G1 X112.375 Y128.216 E12.15487
G1 X112.326 Y128.554 E12.19278
G1 X111.859 Y130.524 E12.41744
G1 X111.703 Y130.952 E12.46801
G1 X110.769 Y132.811 E12.69900
G1 X110.519 Y133.192 E12.74957
G1 X109.181 Y134.786 E12.98055
G1 X108.850 Y135.098 E13.03112
G1 X107.181 Y136.341 E13.26211
G1 X106.786 Y136.569 E13.31268
G1 X104.876 Y137.393 E13.54366
G1 X104.439 Y137.524 E13.59424
G1 X102.390 Y137.885 E13.82522
G1 X101.935 Y137.911 E13.87579
G1 X99.858 Y137.790 E14.10678
G1 X99.409 Y137.711 E14.15735
G1 X97.416 Y137.115 E14.38834
G1 X96.998 Y136.934 E14.43891
G1 X95.195 Y135.894 E14.66989
G1 X94.830 Y135.622 E14.72046
G1 X93.316 Y134.194 E14.95145
G1 X93.024 Y133.845 E15.00202
G1 X91.880 Y132.106 E15.23301
G1 X91.676 Y131.699 E15.28358
G1 X90.964 Y129.744 E15.51456
G1 X90.859 Y129.300 E15.56513
G1 X90.651 Y127.519 E15.76419
G1 X90.617 Y127.234 E15.79613
G1 X90.617 Y126.778 E15.84669
G1 X90.859 Y124.711 E16.07768
G1 X90.964 Y124.268 E16.12825
G1 X91.676 Y122.313 E16.35924
G1 X91.880 Y121.906 E16.40981
G1 X93.024 Y120.167 E16.64080
G1 X93.317 Y119.818 E16.69136
G1 X94.626 Y118.582 E16.89124
G1 X95.253 Y119.170 F6000.000
G1 F1500
G1 X95.382 Y119.048 E16.91098
G1 X95.667 Y118.835 E16.95047
G1 X97.383 Y117.845 E17.17037
G1 X97.710 Y117.704 E17.20986
G1 X99.607 Y117.136 E17.42976
G1 X99.958 Y117.074 E17.46925
G1 X101.935 Y116.959 E17.68916
G1 X102.290 Y116.980 E17.72864
G1 X104.241 Y117.324 E17.94854
