; generated by PrusaSlicer 2.1.1+win64 on 2020-02-10 at 17:39:25 UTC

; 

; external perimeters extrusion width = 0.45mm
; perimeters extrusion width = 0.45mm
; infill extrusion width = 0.45mm
; solid infill extrusion width = 0.45mm
; top infill extrusion width = 0.40mm
; first layer extrusion width = 0.42mm

M73 P0 R82
M73 Q0 S83
M201 X1000 Y1000 Z1000 E5000 ; sets maximum accelerations, mm/sec^2
M203 X200 Y200 Z12 E120 ; sets maximum feedrates, mm/sec
M204 P1250 R1250 T1250 ; sets acceleration (P, T) and retract acceleration (R), mm/sec^2
M205 X8.00 Y8.00 Z0.40 E1.50 ; sets the jerk limits, mm/sec
M205 S0 T0 ; sets the minimum extruding and travel feed rate, mm/sec
M107
M862.3 P "MK3" ; printer model check
M862.1 P0.4 ; nozzle diameter check
M115 U3.8.1 ; tell printer latest fw version
G90 ; use absolute coordinates
M83 ; extruder relative mode
M104 S215 ; set extruder temp
M140 S60 ; set bed temp
M190 S60 ; wait for bed temp
M109 S215 ; wait for extruder temp
G28 W ; home all without mesh bed level
G80 ; mesh bed leveling
G1 Y-3.0 F1000.0 ; go outside print area
G92 E0.0
G1 X60.0 E9.0 F1000.0 ; intro line
M73 Q0 S83
M73 P0 R82
G1 X100.0 E12.5 F1000.0 ; intro line
G92 E0.0
M221 S95
G21 ; set units to millimeters
G90 ; use absolute coordinates
M83 ; use relative distances for extrusion
M900 K30 ; Filament gcode
;BEFORE_LAYER_CHANGE
G92 E0.0
;0.2


G1 E-0.80000 F2100.00000
G1 Z0.600 F10800.000
;AFTER_LAYER_CHANGE
;0.2
G1 X97.072 Y76.983
G1 Z0.200
G1 E0.80000 F2100.00000
M204 S1000
G1 F1200
G1 X97.600 Y75.764 E0.04165
G1 X98.283 Y74.738 E0.03865
G1 X98.745 Y74.188 E0.02253
G1 X102.114 Y70.876 E0.14814
G1 X116.086 Y60.789 E0.54029
G1 X117.401 Y60.276 E0.04425
G1 X121.167 Y59.582 E0.12006
G1 X125.494 Y59.212 E0.13617
G1 X129.258 Y59.248 E0.11802
G1 X132.969 Y59.625 E0.11697
G1 X136.916 Y60.389 E0.12604
G1 X140.941 Y61.585 E0.13164
G1 X144.424 Y62.995 E0.11785
G1 X145.075 Y63.326 E0.02288
G1 X145.853 Y63.902 E0.03036
G1 X146.505 Y64.611 E0.03019
G1 X155.144 Y76.459 E0.45974
G1 X155.755 Y77.425 E0.03587
G1 X156.180 Y78.561 E0.03801
G1 X156.397 Y80.060 E0.04749
G1 X156.355 Y118.851 E1.21626
G1 X152.983 Y133.721 E0.47807
G1 X152.478 Y135.015 E0.04356
G1 X151.396 Y136.575 E0.05955
G1 X148.343 Y139.639 E0.13560
G1 X141.017 Y146.303 E0.31050
G1 X140.390 Y146.727 E0.02375
G1 X139.707 Y147.053 E0.02375
G1 X134.791 Y148.726 E0.16280
G1 X115.363 Y153.457 E0.62697
G1 X114.468 Y153.569 E0.02828
G1 X112.494 Y153.561 E0.06189
G1 X110.646 Y153.076 E0.05992
G1 X109.820 Y152.741 E0.02793
G1 X108.206 Y151.676 E0.06063
G1 X107.434 Y150.970 E0.03280
G1 X94.888 Y134.498 E0.64923
G1 X94.273 Y133.543 E0.03561
G1 X93.900 Y132.643 E0.03054
G1 X93.668 Y131.597 E0.03359
G1 X93.602 Y130.809 E0.02479
G1 X93.645 Y92.063 E1.21486
G1 X97.058 Y77.041 E0.48300
G1 F8640
G1 X97.600 Y75.764 E-0.32036
G1 X98.283 Y74.738 E-0.28462
G1 X98.715 Y74.224 E-0.15502
G1 E-0.04000 F2100.00000
G1 Z0.800 F10800.000
G1 X126.058 Y74.076
G1 Z0.200
G1 E0.80000 F2100.00000
G1 F1200
G1 X126.075 Y74.434 E0.01126
G1 X150.663 Y74.447 E0.77094
G1 X151.924 Y74.672 E0.04017
G1 X153.099 Y75.166 E0.03996
G1 X154.245 Y76.001 E0.04448
G1 X154.832 Y76.665 E0.02777
G1 X155.365 Y77.493 E0.03089
G1 X155.834 Y78.707 E0.04079
G1 X156.023 Y79.953 E0.03953
G1 X156.023 Y117.433 E1.17515
G1 X156.091 Y117.812 E0.01207
G1 X156.067 Y118.818 E0.03156
G1 X155.737 Y120.009 E0.03874
G1 X155.106 Y121.029 E0.03760
G1 X150.014 Y126.121 E0.22581
G1 X151.289 Y127.422 E0.05711
G1 X152.049 Y128.527 E0.04206
G1 X152.515 Y129.538 E0.03490
G1 X152.859 Y131.140 E0.05137
G1 X152.886 Y132.137 E0.03128
G1 X152.477 Y134.109 E0.06315
G1 X152.095 Y134.929 E0.02837
G1 X151.174 Y136.255 E0.05061
G1 X147.965 Y139.485 E0.14276
G1 X146.556 Y140.487 E0.05421
G1 X145.220 Y141.036 E0.04527
G1 X143.647 Y141.304 E0.05005
G1 X142.508 Y141.262 E0.03571
G1 X142.549 Y143.099 E0.05761
G1 X142.186 Y144.406 E0.04253
G1 X141.246 Y145.719 E0.05060
G1 X140.044 Y146.543 E0.04571
G1 X134.780 Y148.349 E0.17450
G1 X133.645 Y148.508 E0.03593
G1 X132.707 Y148.429 E0.02951
G1 X129.607 Y147.530 E0.10122
G1 X127.145 Y147.012 E0.07887
G1 X125.810 Y146.853 E0.04218
G1 X125.189 Y147.522 E0.02862
G1 X124.243 Y148.151 E0.03560
G1 X123.077 Y148.543 E0.03858
G1 X120.922 Y148.751 E0.06788
G1 X119.494 Y150.766 E0.07744
G1 X117.354 Y152.355 E0.08356
G1 X114.955 Y153.148 E0.07923
G1 X112.465 Y153.175 E0.07809
G1 X110.086 Y152.450 E0.07797
G1 X107.994 Y151.004 E0.07974
G1 X106.481 Y149.042 E0.07768
G1 X105.562 Y146.367 E0.08870
G1 X105.557 Y143.859 E0.07863
G1 X106.291 Y141.512 E0.07710
G1 X107.605 Y139.592 E0.07296
G1 X110.739 Y136.480 E0.13847
G1 X99.496 Y136.480 E0.35250
G1 X98.248 Y136.290 E0.03958
G1 X96.902 Y135.748 E0.04551
G1 X95.755 Y134.913 E0.04451
G1 X95.187 Y134.274 E0.02677
G1 X94.710 Y133.564 E0.02684
G1 X94.214 Y132.379 E0.04027
G1 X93.977 Y130.961 E0.04507
G1 X93.977 Y93.481 E1.17517
G1 X93.909 Y93.102 E0.01207
G1 X93.933 Y92.095 E0.03156
G1 X94.263 Y90.905 E0.03874
G1 X94.894 Y89.885 E0.03760
G1 X99.984 Y84.795 E0.22570
G1 X98.792 Y83.591 E0.05312
G1 X97.806 Y82.127 E0.05534
G1 X97.445 Y81.246 E0.02984
G1 X97.153 Y79.879 E0.04385
G1 X97.118 Y78.738 E0.03579
G1 X97.412 Y77.160 E0.05032
G1 X97.737 Y76.294 E0.02900
G1 X98.744 Y74.757 E0.05761
G1 X102.206 Y71.286 E0.15371
G1 X103.392 Y70.459 E0.04534
G1 X104.319 Y70.018 E0.03218
G1 X106.036 Y69.640 E0.05511
G1 X107.289 Y69.643 E0.03932
G1 X108.547 Y69.891 E0.04019
G1 X109.453 Y70.219 E0.03022
G1 X110.121 Y70.641 E0.02476
G1 X110.143 Y69.242 E0.04389
G1 X110.799 Y67.054 E0.07162
G1 X112.214 Y64.942 E0.07969
G1 X115.704 Y61.483 E0.15408
G1 X117.263 Y60.699 E0.05471
G1 X121.499 Y59.916 E0.13507
G1 X125.256 Y59.595 E0.11822
G1 X129.017 Y59.618 E0.11793
G1 X133.099 Y60.020 E0.12862
G1 X137.055 Y60.809 E0.12646
G1 X140.854 Y61.954 E0.12441
G1 X144.834 Y63.568 E0.13466
G1 X146.037 Y64.485 E0.04741
G1 X146.664 Y65.377 E0.03419
G1 X147.065 Y66.379 E0.03385
G1 X147.145 Y68.401 E0.06345
G1 X146.869 Y69.569 E0.03761
G1 X146.043 Y70.879 E0.04854
G1 X144.788 Y71.839 E0.04955
G1 X139.331 Y73.734 E0.18113
G1 X138.232 Y73.885 E0.03479
G1 X137.406 Y73.827 E0.02595
G1 X134.194 Y72.907 E0.10476
G1 X131.732 Y72.389 E0.07887
G1 X130.397 Y72.230 E0.04218
G1 X129.776 Y72.899 E0.02862
G1 X128.831 Y73.528 E0.03560
G1 X127.664 Y73.920 E0.03858
G1 X126.117 Y74.070 E0.04873
G1 F8640
G1 X126.075 Y74.434 E-0.08476
G1 X128.999 Y74.436 E-0.67524
G1 E-0.04000 F2100.00000
G1 Z0.800 F10800.000
G1 X130.249 Y71.832
G1 Z0.200
G1 E0.80000 F2100.00000
G1 F1200
G1 X129.546 Y72.599 E0.03262
G1 X128.685 Y73.180 E0.03256
G1 X127.606 Y73.547 E0.03573
G1 X125.257 Y73.774 E0.07400
G1 X125.184 Y73.935 E0.00554
G1 X124.585 Y74.811 E0.03328
G1 X150.614 Y74.821 E0.81615
G1 X151.799 Y75.028 E0.03771
G1 X152.896 Y75.485 E0.03725
G1 X153.977 Y76.267 E0.04186
G1 X154.524 Y76.882 E0.02579
G1 X155.021 Y77.649 E0.02865
G1 X155.464 Y78.785 E0.03825
G1 X155.646 Y79.968 E0.03752
G1 X155.646 Y117.469 E1.17583
G1 X155.714 Y117.826 E0.01138
G1 X155.697 Y118.743 E0.02876
G1 X155.401 Y119.835 E0.03549
G1 X154.824 Y120.778 E0.03465
G1 X149.482 Y126.119 E0.23684
G1 X150.988 Y127.649 E0.06729
G1 X151.729 Y128.728 E0.04105
G1 X152.151 Y129.638 E0.03145
G1 X152.487 Y131.202 E0.05014
G1 X152.509 Y132.124 E0.02893
G1 X152.113 Y134.009 E0.06040
G1 X151.761 Y134.754 E0.02582
G1 X150.895 Y136.001 E0.04761
G1 X147.709 Y139.207 E0.14173
G1 X146.356 Y140.167 E0.05202
G1 X145.136 Y140.668 E0.04132
G1 X143.603 Y140.929 E0.04877
G1 X142.772 Y140.896 E0.02606
G1 X141.997 Y140.748 E0.02476
G1 X142.129 Y141.176 E0.01406
G1 X142.171 Y143.079 E0.05967
G1 X141.832 Y144.271 E0.03887
G1 X141.005 Y145.428 E0.04458
G1 X139.897 Y146.195 E0.04226
G1 X134.675 Y147.986 E0.17309
G1 X133.615 Y148.132 E0.03355
G1 X132.795 Y148.061 E0.02581
G1 X129.698 Y147.164 E0.10108
G1 X127.206 Y146.639 E0.07983
G1 X125.661 Y146.455 E0.04879
G1 X124.958 Y147.222 E0.03262
G1 X124.097 Y147.803 E0.03256
G1 X123.019 Y148.170 E0.03573
G1 X120.668 Y148.397 E0.07404
G1 X120.592 Y148.565 E0.00578
G1 X119.244 Y150.483 E0.07351
G1 X117.206 Y152.008 E0.07981
G1 X114.920 Y152.772 E0.07557
G1 X112.545 Y152.805 E0.07447
G1 X110.274 Y152.122 E0.07434
G1 X108.273 Y150.749 E0.07610
G1 X106.826 Y148.889 E0.07389
G1 X105.939 Y146.334 E0.08480
G1 X105.934 Y143.887 E0.07673
G1 X106.618 Y141.701 E0.07180
G1 X107.883 Y139.847 E0.07040
G1 X111.654 Y136.103 E0.16660
G1 X99.511 Y136.103 E0.38074
G1 X98.327 Y135.921 E0.03755
G1 X97.104 Y135.429 E0.04134
G1 X96.023 Y134.647 E0.04186
G1 X95.478 Y134.034 E0.02571
G1 X95.034 Y133.370 E0.02504
G1 X94.571 Y132.255 E0.03787
G1 X94.354 Y130.946 E0.04160
G1 X94.354 Y93.444 E1.17583
G1 X94.286 Y93.088 E0.01138
G1 X94.303 Y92.171 E0.02876
G1 X94.599 Y91.078 E0.03549
G1 X95.176 Y90.136 E0.03465
G1 X100.516 Y84.796 E0.23678
G1 X99.094 Y83.364 E0.06326
G1 X98.147 Y81.965 E0.05300
G1 X97.810 Y81.151 E0.02762
G1 X97.526 Y79.816 E0.04278
G1 X97.492 Y78.787 E0.03230
G1 X97.779 Y77.246 E0.04913
G1 X98.082 Y76.448 E0.02676
G1 X99.049 Y74.981 E0.05508
G1 X102.461 Y71.565 E0.15139
G1 X103.594 Y70.778 E0.04326
G1 X104.460 Y70.369 E0.03003
G1 X106.095 Y70.013 E0.05247
G1 X107.234 Y70.016 E0.03570
G1 X108.459 Y70.258 E0.03916
G1 X109.303 Y70.566 E0.02816
G1 X110.494 Y71.335 E0.04446
G1 X110.512 Y69.324 E0.06307
G1 X111.152 Y67.190 E0.06986
G1 X112.516 Y65.169 E0.07644
G1 X115.948 Y61.772 E0.15139
G1 X117.406 Y61.048 E0.05106
G1 X121.540 Y60.291 E0.13178
G1 X125.262 Y59.972 E0.11713
G1 X129.006 Y59.995 E0.11738
G1 X133.053 Y60.394 E0.12751
G1 X136.972 Y61.177 E0.12531
G1 X140.720 Y62.307 E0.12274
G1 X144.668 Y63.908 E0.13358
G1 X145.783 Y64.765 E0.04411
G1 X146.324 Y65.540 E0.02960
G1 X146.689 Y66.430 E0.03017
G1 X146.771 Y68.343 E0.06006
G1 X146.532 Y69.396 E0.03383
G1 X145.743 Y70.648 E0.04642
G1 X144.586 Y71.519 E0.04542
G1 X139.226 Y73.372 E0.17780
G1 X138.202 Y73.509 E0.03240
G1 X137.455 Y73.452 E0.02350
G1 X134.285 Y72.541 E0.10340
G1 X131.794 Y72.017 E0.07983
G1 X130.308 Y71.840 E0.04690
G1 X130.099 Y71.435 F10800.000
G1 F1200
G1 X129.314 Y72.301 E0.03667
G1 X128.537 Y72.832 E0.02951
G1 X127.547 Y73.174 E0.03283
G1 X124.981 Y73.422 E0.08085
G1 X124.857 Y73.745 E0.01085
G1 X123.870 Y75.188 E0.05481
G1 X150.567 Y75.195 E0.83707
G1 X151.676 Y75.385 E0.03527
G1 X152.694 Y75.804 E0.03454
G1 X153.710 Y76.534 E0.03922
G1 X154.216 Y77.101 E0.02383
G1 X154.678 Y77.806 E0.02641
G1 X155.095 Y78.864 E0.03568
G1 X155.269 Y79.983 E0.03549
G1 X155.269 Y117.508 E1.17658
G1 X155.337 Y117.843 E0.01071
G1 X155.327 Y118.670 E0.02594
G1 X155.064 Y119.664 E0.03224
G1 X154.541 Y120.528 E0.03166
G1 X148.951 Y126.118 E0.24787
G1 X150.687 Y127.876 E0.07748
G1 X151.409 Y128.929 E0.04003
G1 X151.786 Y129.738 E0.02800
G1 X152.114 Y131.263 E0.04890
G1 X152.131 Y132.109 E0.02655
G1 X151.749 Y133.908 E0.05766
G1 X151.428 Y134.576 E0.02325
G1 X150.616 Y135.747 E0.04467
G1 X147.453 Y138.930 E0.14069
G1 X146.155 Y139.847 E0.04982
G1 X145.053 Y140.299 E0.03737
G1 X143.560 Y140.554 E0.04748
G1 X142.804 Y140.520 E0.02373
G1 X141.372 Y140.240 E0.04575
G1 X141.754 Y141.226 E0.03313
G1 X141.800 Y143.007 E0.05586
G1 X141.504 Y144.082 E0.03497
G1 X140.761 Y145.138 E0.04050
G1 X139.749 Y145.847 E0.03873
G1 X134.570 Y147.623 E0.17165
G1 X133.586 Y147.755 E0.03115
G1 X132.882 Y147.694 E0.02215
G1 X129.790 Y146.798 E0.10095
G1 X127.268 Y146.267 E0.08080
G1 X125.512 Y146.058 E0.05543
G1 X124.727 Y146.924 E0.03667
G1 X123.950 Y147.455 E0.02951
G1 X122.960 Y147.797 E0.03283
G1 X120.393 Y148.045 E0.08085
G1 X120.266 Y148.373 E0.01102
G1 X118.992 Y150.200 E0.06985
G1 X117.056 Y151.660 E0.07605
G1 X114.883 Y152.395 E0.07190
G1 X112.624 Y152.435 E0.07086
G1 X110.462 Y151.794 E0.07070
G1 X108.551 Y150.493 E0.07247
G1 X107.171 Y148.734 E0.07010
G1 X106.316 Y146.301 E0.08086
G1 X106.311 Y143.915 E0.07481
G1 X106.945 Y141.890 E0.06653
G1 X108.162 Y140.101 E0.06783
G1 X111.603 Y136.686 E0.15202
G1 X112.965 Y136.018 E0.04757
G1 X112.897 Y135.726 E0.00940
G1 X99.526 Y135.726 E0.41926
G1 X98.407 Y135.552 E0.03551
G1 X97.305 Y135.110 E0.03721
G1 X96.290 Y134.380 E0.03921
M73 Q1 S82
G1 X95.784 Y133.813 E0.02381
G1 X95.358 Y133.176 E0.02402
G1 X94.928 Y132.131 E0.03543
G1 X94.731 Y130.931 E0.03815
G1 X94.731 Y93.406 E1.17657
M73 P1 R81
G1 X94.663 Y93.071 E0.01071
G1 X94.673 Y92.244 E0.02594
G1 X94.936 Y91.250 E0.03224
G1 X95.459 Y90.386 E0.03166
G1 X101.049 Y84.797 E0.24784
G1 X99.374 Y83.111 E0.07449
G1 X98.487 Y81.801 E0.04960
G1 X98.175 Y81.055 E0.02538
G1 X97.898 Y79.754 E0.04170
G1 X97.867 Y78.835 E0.02882
G1 X98.147 Y77.332 E0.04793
G1 X98.427 Y76.603 E0.02450
G1 X99.352 Y75.205 E0.05256
G1 X102.715 Y71.844 E0.14909
G1 X103.795 Y71.097 E0.04117
G1 X104.601 Y70.719 E0.02790
G1 X106.116 Y70.390 E0.04861
G1 X107.180 Y70.390 E0.03336
G1 X108.346 Y70.618 E0.03726
G1 X109.117 Y70.895 E0.02569
G1 X110.510 Y71.794 E0.05197
G1 X110.731 Y72.004 E0.00956
G1 X110.977 Y71.853 E0.00906
G1 X110.872 Y71.495 E0.01171
G1 X110.881 Y69.406 E0.06550
G1 X111.505 Y67.326 E0.06808
G1 X112.817 Y65.397 E0.07316
G1 X116.190 Y62.062 E0.14871
G1 X117.548 Y61.399 E0.04738
G1 X121.581 Y60.666 E0.12853
G1 X125.286 Y60.348 E0.11659
G1 X128.995 Y60.372 E0.11630
G1 X133.007 Y60.769 E0.12640
G1 X136.889 Y61.545 E0.12415
G1 X140.587 Y62.660 E0.12108
G1 X144.503 Y64.248 E0.13251
G1 X145.491 Y65.005 E0.03902
G1 X146.002 Y65.738 E0.02801
G1 X146.327 Y66.540 E0.02714
G1 X146.394 Y68.331 E0.05620
G1 X146.173 Y69.277 E0.03047
G1 X145.445 Y70.415 E0.04234
G1 X144.385 Y71.199 E0.04133
G1 X139.158 Y73.000 E0.17338
G1 X138.172 Y73.132 E0.03116
G1 X137.505 Y73.078 E0.02101
G1 X134.377 Y72.175 E0.10208
G1 X131.855 Y71.644 E0.08080
G1 X130.159 Y71.442 E0.05355
G1 X129.861 Y71.027 F10800.000
G1 F1200
G1 X129.695 Y71.331 E0.01086
G1 X129.051 Y72.030 E0.02980
G1 X128.388 Y72.485 E0.02522
G1 X127.488 Y72.801 E0.02991
G1 X124.702 Y73.070 E0.08774
G1 X124.530 Y73.554 E0.01611
G1 X123.155 Y75.565 E0.07637
G1 X150.521 Y75.570 E0.85802
G1 X151.554 Y75.742 E0.03284
G1 X152.494 Y76.124 E0.03182
G1 X153.444 Y76.802 E0.03658
G1 X153.910 Y77.321 E0.02188
G1 X154.335 Y77.964 E0.02417
G1 X154.726 Y78.944 E0.03309
G1 X154.892 Y79.998 E0.03343
G1 X154.892 Y117.549 E1.17741
G1 X154.960 Y117.863 E0.01006
G1 X154.955 Y118.600 E0.02311
G1 X154.726 Y119.495 E0.02897
G1 X154.257 Y120.278 E0.02861
G1 X148.418 Y126.117 E0.25890
G1 X150.385 Y128.104 E0.08767
G1 X151.090 Y129.130 E0.03902
G1 X151.422 Y129.839 E0.02455
G1 X151.741 Y131.324 E0.04763
G1 X151.754 Y132.093 E0.02414
G1 X151.386 Y133.806 E0.05491
G1 X151.096 Y134.397 E0.02066
G1 X150.337 Y135.493 E0.04179
G1 X147.197 Y138.652 E0.13965
G1 X145.956 Y139.526 E0.04761
G1 X144.969 Y139.931 E0.03344
G1 X143.517 Y140.178 E0.04618
G1 X142.863 Y140.148 E0.02052
G1 X141.716 Y139.924 E0.03663
G1 X140.920 Y139.615 E0.02679
G1 X140.705 Y139.480 E0.00795
G1 X140.493 Y139.705 E0.00969
G1 X141.074 Y140.523 E0.03145
G1 X141.378 Y141.273 E0.02537
G1 X141.429 Y142.938 E0.05224
G1 X141.175 Y143.896 E0.03108
G1 X140.514 Y144.851 E0.03640
G1 X139.600 Y145.500 E0.03514
G1 X134.466 Y147.260 E0.17017
G1 X133.558 Y147.379 E0.02873
G1 X132.969 Y147.327 E0.01852
G1 X129.881 Y146.432 E0.10082
G1 X127.329 Y145.895 E0.08177
G1 X125.274 Y145.650 E0.06489
G1 X125.108 Y145.953 E0.01086
G1 X124.464 Y146.653 E0.02980
G1 X123.801 Y147.108 E0.02522
G1 X122.900 Y147.424 E0.02991
G1 X120.115 Y147.693 E0.08773
G1 X119.941 Y148.180 E0.01621
G1 X118.700 Y149.960 E0.06805
G1 X116.905 Y151.314 E0.07050
G1 X114.845 Y152.019 E0.06825
G1 X112.701 Y152.065 E0.06725
G1 X110.649 Y151.465 E0.06702
G1 X108.788 Y150.198 E0.07060
G1 X107.488 Y148.528 E0.06637
G1 X106.683 Y146.208 E0.07698
G1 X106.688 Y143.946 E0.07095
G1 X107.296 Y142.032 E0.06297
G1 X108.462 Y140.329 E0.06469
G1 X111.845 Y136.976 E0.14935
G1 X113.100 Y136.373 E0.04367
G1 X116.869 Y135.693 E0.12006
G1 X116.838 Y135.349 E0.01081
G1 X99.541 Y135.349 E0.54234
G1 X98.487 Y135.183 E0.03346
G1 X97.506 Y134.789 E0.03313
G1 X96.556 Y134.112 E0.03657
G1 X96.090 Y133.592 E0.02189
G1 X95.683 Y132.983 E0.02299
G1 X95.285 Y132.009 E0.03297
G1 X95.108 Y130.916 E0.03473
G1 X95.108 Y93.364 E1.17740
G1 X95.040 Y93.051 E0.01006
G1 X95.045 Y92.314 E0.02311
