; generated by PrusaSlicer 2.1.1+win64 on 2020-02-18 at 20:30:14 UTC

; 

; external perimeters extrusion width = 0.45mm
; perimeters extrusion width = 0.45mm
; infill extrusion width = 0.45mm
; solid infill extrusion width = 0.45mm
; top infill extrusion width = 0.40mm
; first layer extrusion width = 0.42mm

M73 P0 R20
M73 Q0 S20
M201 X1000 Y1000 Z1000 E5000 ; sets maximum accelerations, mm/sec^2
M203 X200 Y200 Z12 E120 ; sets maximum feedrates, mm/sec
M204 P1250 R1250 T1250 ; sets acceleration (P, T) and retract acceleration (R), mm/sec^2
M205 X8.00 Y8.00 Z0.40 E4.50 ; sets the jerk limits, mm/sec
M205 S0 T0 ; sets the minimum extruding and travel feed rate, mm/sec
M107
M862.3 P "MK3" ; printer model check
M862.1 P0.4 ; nozzle diameter check
M115 U3.8.1 ; tell printer latest fw version
G90 ; use absolute coordinates
M83 ; extruder relative mode
M104 S215 ; set extruder temp
M140 S60 ; set bed temp
M190 S60 ; wait for bed temp
M109 S215 ; wait for extruder temp
G28 W ; home all without mesh bed level
G80 ; mesh bed leveling
G1 Y-3.0 F1000.0 ; go outside print area
G92 E0.0
G1 X60.0 E9.0 F1000.0 ; intro line
M73 Q0 S20
M73 P0 R20
G1 X100.0 E12.5 F1000.0 ; intro line
G92 E0.0
M221 S95
G21 ; set units to millimeters
G90 ; use absolute coordinates
M83 ; use relative distances for extrusion
M900 K30 ; Filament gcode
;BEFORE_LAYER_CHANGE
G92 E0.0
;0.2


G1 E-0.80000 F2100.00000
G1 Z0.600 F10800.000
;AFTER_LAYER_CHANGE
;0.2
G1 X94.193 Y80.478
G1 Z0.200
G1 E0.80000 F2100.00000
M204 S1000
G1 F1200
G1 X96.879 Y77.438 E0.12719
G1 X99.863 Y74.691 E0.12719
G1 X103.114 Y72.264 E0.12719
G1 X106.597 Y70.185 E0.12719
G1 X110.272 Y68.476 E0.12707
G1 X114.110 Y67.152 E0.12730
G1 X118.057 Y66.231 E0.12707
G1 X122.081 Y65.720 E0.12719
G1 X126.081 Y65.625 E0.12547
G1 X130.180 Y65.949 E0.12890
G1 X134.168 Y66.686 E0.12716
G1 X138.061 Y67.830 E0.12722
G1 X141.714 Y69.323 E0.12375
G1 X145.488 Y71.345 E0.13423
G1 X148.756 Y73.560 E0.12379
G1 X151.940 Y76.241 E0.13050
G1 X154.687 Y79.080 E0.12387
G1 X157.196 Y82.267 E0.12719
G1 X159.362 Y85.693 E0.12707
G1 X161.168 Y89.329 E0.12730
G1 X162.588 Y93.125 E0.12707
G1 X163.611 Y97.051 E0.12719
G1 X164.224 Y101.060 E0.12719
G1 X164.423 Y105.112 E0.12719
G1 X164.203 Y109.163 E0.12719
G1 X163.569 Y113.169 E0.12719
G1 X162.526 Y117.089 E0.12719
G1 X161.086 Y120.878 E0.12707
G1 X159.262 Y124.505 E0.12730
G1 X157.078 Y127.919 E0.12707
G1 X154.553 Y131.093 E0.12719
G1 X151.793 Y133.915 E0.12375
G1 X148.498 Y136.649 E0.13423
G1 X145.212 Y138.844 E0.12390
G1 X141.532 Y140.781 E0.13039
G1 X137.868 Y142.257 E0.12387
G1 X133.970 Y143.380 E0.12719
G1 X129.981 Y144.096 E0.12707
G1 X125.881 Y144.399 E0.12890
G1 X121.881 Y144.284 E0.12547
G1 X117.859 Y143.753 E0.12719
G1 X113.914 Y142.811 E0.12719
G1 X110.086 Y141.468 E0.12719
G1 X106.417 Y139.739 E0.12719
G1 X102.947 Y137.644 E0.12707
G1 X99.709 Y135.201 E0.12719
G1 X96.814 Y132.512 E0.12387
G1 X94.068 Y129.384 E0.13050
G1 X91.728 Y126.076 E0.12707
G1 X89.737 Y122.537 E0.12730
G1 X88.163 Y118.918 E0.12375
G1 X86.899 Y114.952 E0.13050
G1 X86.098 Y111.084 E0.12387
G1 X85.668 Y106.824 E0.13423
G1 X85.681 Y102.880 E0.12367
G1 X86.110 Y98.842 E0.12730
G1 X86.949 Y94.877 E0.12707
G1 X88.194 Y91.013 E0.12730
G1 X89.827 Y87.303 E0.12707
G1 X91.834 Y83.778 E0.12719
G1 X94.158 Y80.527 E0.12531
G1 F8640
G1 X96.334 Y78.057 E-0.76000
G1 E-0.04000 F2100.00000
G1 Z0.800 F10800.000
G1 X97.952 Y82.687
G1 Z0.200
G1 E0.80000 F2100.00000
G1 F1200
G1 X100.478 Y79.936 E0.11711
G1 X103.282 Y77.469 E0.11711
G1 X106.333 Y75.314 E0.11711
G1 X109.595 Y73.496 E0.11711
G1 X113.032 Y72.035 E0.11711
G1 X116.605 Y70.947 E0.11711
G1 X120.274 Y70.245 E0.11711
G1 X123.996 Y69.937 E0.11711
G1 X127.726 Y70.026 E0.11698
G1 X130.505 Y70.353 E0.08772
G1 X131.444 Y70.515 E0.02990
G1 X135.064 Y71.389 E0.11674
G1 X138.580 Y72.647 E0.11711
G1 X141.943 Y74.271 E0.11711
G1 X145.115 Y76.244 E0.11711
G1 X148.059 Y78.542 E0.11711
G1 X150.742 Y81.141 E0.11711
G1 X153.133 Y84.010 E0.11711
G1 X155.206 Y87.117 E0.11711
G1 X156.937 Y90.426 E0.11711
G1 X158.306 Y93.901 E0.11711
G1 X159.299 Y97.502 E0.11711
G1 X159.902 Y101.187 E0.11711
G1 X160.111 Y104.917 E0.11711
G1 X159.922 Y108.647 E0.11711
G1 X159.338 Y112.336 E0.11711
G1 X158.365 Y115.942 E0.11711
G1 X157.014 Y119.424 E0.11711
G1 X155.301 Y122.742 E0.11711
G1 X153.244 Y125.860 E0.11711
G1 X150.868 Y128.742 E0.11711
G1 X148.199 Y131.354 E0.11711
G1 X145.268 Y133.669 E0.11711
G1 X142.107 Y135.658 E0.11711
G1 X138.752 Y137.300 E0.11711
G1 X135.242 Y138.577 E0.11711
G1 X131.617 Y139.473 E0.11711
G1 X127.916 Y139.978 E0.11711
G1 X124.183 Y140.088 E0.11711
G1 X120.459 Y139.800 E0.11711
G1 X116.787 Y139.117 E0.11711
G1 X113.208 Y138.049 E0.11711
G1 X109.763 Y136.606 E0.11711
G1 X106.491 Y134.805 E0.11711
G1 X103.429 Y132.666 E0.11711
G1 X100.612 Y130.214 E0.11711
G1 X98.071 Y127.476 E0.11711
G1 X95.836 Y124.484 E0.11711
G1 X93.931 Y121.272 E0.11711
G1 X92.379 Y117.875 E0.11711
G1 X91.196 Y114.332 E0.11711
G1 X90.397 Y110.683 E0.11711
G1 X89.990 Y106.971 E0.11711
G1 X89.980 Y103.236 E0.11711
G1 X90.367 Y99.521 E0.11711
G1 X91.147 Y95.868 E0.11711
G1 X92.311 Y92.319 E0.11711
G1 X93.845 Y88.914 E0.11711
G1 X95.733 Y85.691 E0.11711
G1 X97.916 Y82.736 E0.11522
G1 X98.220 Y82.960 F10800.000
G1 F1200
G1 X100.742 Y80.206 E0.11709
G1 X103.516 Y77.766 E0.11585
G1 X106.534 Y75.634 E0.11585
G1 X109.761 Y73.835 E0.11585
G1 X113.161 Y72.389 E0.11585
G1 X116.696 Y71.313 E0.11585
G1 X120.325 Y70.619 E0.11585
G1 X124.007 Y70.315 E0.11585
G1 X127.699 Y70.403 E0.11580
G1 X130.450 Y70.727 E0.08686
G1 X131.368 Y70.885 E0.02919
G1 X134.955 Y71.751 E0.11571
G1 X138.434 Y72.995 E0.11585
G1 X141.761 Y74.602 E0.11585
G1 X144.899 Y76.553 E0.11585
G1 X147.811 Y78.827 E0.11585
G1 X150.465 Y81.398 E0.11585
G1 X152.831 Y84.236 E0.11585
G1 X154.881 Y87.309 E0.11585
G1 X156.594 Y90.583 E0.11585
G1 X157.948 Y94.021 E0.11585
G1 X158.930 Y97.583 E0.11585
G1 X159.527 Y101.229 E0.11585
G1 X159.734 Y104.918 E0.11585
G1 X159.547 Y108.608 E0.11585
G1 X158.969 Y112.257 E0.11585
G1 X158.006 Y115.824 E0.11585
G1 X156.670 Y119.268 E0.11585
G1 X154.975 Y122.552 E0.11585
G1 X152.941 Y125.636 E0.11585
G1 X150.590 Y128.486 E0.11585
G1 X147.950 Y131.071 E0.11585
G1 X145.050 Y133.360 E0.11585
G1 X141.923 Y135.328 E0.11585
G1 X138.605 Y136.953 E0.11585
G1 X135.132 Y138.216 E0.11585
G1 X131.546 Y139.102 E0.11585
G1 X127.885 Y139.602 E0.11585
G1 X124.192 Y139.710 E0.11585
G1 X120.508 Y139.425 E0.11585
G1 X116.876 Y138.750 E0.11585
G1 X113.335 Y137.693 E0.11585
G1 X109.927 Y136.266 E0.11585
G1 X106.691 Y134.484 E0.11585
G1 X103.662 Y132.368 E0.11585
G1 X100.875 Y129.943 E0.11585
G1 X98.361 Y127.235 E0.11585
G1 X96.150 Y124.275 E0.11585
G1 X94.266 Y121.097 E0.11585
G1 X92.730 Y117.736 E0.11585
G1 X91.560 Y114.231 E0.11585
G1 X90.770 Y110.622 E0.11585
G1 X90.367 Y106.950 E0.11585
G1 X90.357 Y103.255 E0.11585
G1 X90.740 Y99.580 E0.11585
G1 X91.512 Y95.967 E0.11585
G1 X92.663 Y92.456 E0.11585
G1 X94.181 Y89.087 E0.11585
G1 X96.048 Y85.899 E0.11585
G1 X98.184 Y83.008 E0.11271
G1 X98.079 Y82.585 F10800.000
G1 F8640
G1 X100.403 Y80.577 E-0.76000
G1 E-0.04000 F2100.00000
G1 Z0.800 F10800.000
G1 X96.365 Y82.207
G1 Z0.200
G1 E0.80000 F2100.00000
G1 F1200
G1 X98.862 Y79.382 E0.11823
G1 X101.635 Y76.827 E0.11823
G1 X104.657 Y74.572 E0.11823
G1 X107.895 Y72.639 E0.11823
G1 X111.314 Y71.050 E0.11823
G1 X114.878 Y69.820 E0.11823
G1 X118.550 Y68.963 E0.11823
G1 X122.291 Y68.489 E0.11823
G1 X126.061 Y68.401 E0.11823
G1 X129.831 Y68.703 E0.11858
G1 X130.745 Y68.836 E0.02898
G1 X133.523 Y69.387 E0.08881
G1 X137.145 Y70.451 E0.11834
G1 X140.634 Y71.880 E0.11823
G1 X143.958 Y73.661 E0.11823
G1 X147.080 Y75.774 E0.11823
G1 X149.970 Y78.197 E0.11823
G1 X152.594 Y80.904 E0.11823
G1 X154.927 Y83.867 E0.11823
G1 X156.942 Y87.053 E0.11823
G1 X158.619 Y90.431 E0.11823
G1 X159.940 Y93.962 E0.11823
G1 X160.891 Y97.611 E0.11823
G1 X161.462 Y101.338 E0.11823
G1 X161.646 Y105.104 E0.11823
G1 X161.443 Y108.869 E0.11823
G1 X160.853 Y112.594 E0.11823
G1 X159.883 Y116.237 E0.11823
G1 X158.544 Y119.762 E0.11823
G1 X156.849 Y123.131 E0.11823
G1 X154.818 Y126.307 E0.11823
G1 X152.470 Y129.258 E0.11823
G1 X149.831 Y131.951 E0.11823
G1 X146.930 Y134.359 E0.11823
G1 X143.796 Y136.456 E0.11823
G1 X140.463 Y138.219 E0.11823
G1 X136.967 Y139.631 E0.11823
G1 X133.343 Y140.675 E0.11823
G1 X129.632 Y141.342 E0.11823
G1 X125.872 Y141.623 E0.11823
G1 X122.103 Y141.516 E0.11823
G1 X118.365 Y141.023 E0.11823
G1 X114.697 Y140.147 E0.11823
G1 X111.139 Y138.899 E0.11823
G1 X107.728 Y137.292 E0.11823
G1 X104.501 Y135.343 E0.11823
G1 X101.491 Y133.072 E0.11823
G1 X98.730 Y130.503 E0.11823
G1 X96.248 Y127.665 E0.11823
G1 X94.071 Y124.586 E0.11823
G1 X92.222 Y121.300 E0.11823
G1 X90.721 Y117.841 E0.11823
G1 X89.584 Y114.246 E0.11823
G1 X88.822 Y110.553 E0.11823
G1 X88.444 Y106.801 E0.11823
G1 X88.454 Y103.030 E0.11823
G1 X88.851 Y99.281 E0.11823
G1 X89.632 Y95.592 E0.11823
G1 X90.788 Y92.003 E0.11823
G1 X92.307 Y88.552 E0.11823
G1 X94.172 Y85.275 E0.11823
G1 X96.330 Y82.256 E0.11634
G1 X96.023 Y82.037 F10800.000
G1 F1200
G1 X98.592 Y79.117 E0.12192
G1 X101.394 Y76.537 E0.11944
G1 X104.447 Y74.258 E0.11944
G1 X107.718 Y72.306 E0.11944
G1 X111.172 Y70.700 E0.11944
G1 X114.774 Y69.457 E0.11944
G1 X118.484 Y68.592 E0.11944
G1 X122.263 Y68.112 E0.11944
G1 X126.071 Y68.024 E0.11944
G1 X129.873 Y68.328 E0.11957
G1 X130.809 Y68.464 E0.02966
G1 X133.613 Y69.020 E0.08964
G1 X137.270 Y70.095 E0.11949
G1 X140.795 Y71.539 E0.11944
G1 X144.153 Y73.338 E0.11944
G1 X147.308 Y75.473 E0.11944
G1 X150.227 Y77.920 E0.11944
G1 X152.879 Y80.655 E0.11944
G1 X155.235 Y83.649 E0.11944
G1 X157.271 Y86.868 E0.11944
G1 X158.966 Y90.280 E0.11944
G1 X160.300 Y93.848 E0.11944
G1 X161.261 Y97.535 E0.11944
G1 X161.838 Y101.300 E0.11944
G1 X162.024 Y105.105 E0.11944
G1 X161.818 Y108.909 E0.11944
G1 X161.222 Y112.672 E0.11944
G1 X160.243 Y116.353 E0.11944
G1 X158.890 Y119.914 E0.11944
G1 X157.178 Y123.317 E0.11944
G1 X155.125 Y126.527 E0.11944
G1 X152.753 Y129.508 E0.11944
G1 X150.087 Y132.229 E0.11944
G1 X147.155 Y134.662 E0.11944
G1 X143.989 Y136.780 E0.11944
G1 X140.622 Y138.562 E0.11944
G1 X137.090 Y139.988 E0.11944
G1 X133.429 Y141.043 E0.11944
G1 X129.680 Y141.717 E0.11944
G1 X125.881 Y142.001 E0.11944
G1 X122.073 Y141.893 E0.11944
G1 X118.296 Y141.394 E0.11944
G1 X114.591 Y140.509 E0.11944
G1 X110.996 Y139.249 E0.11944
G1 X107.550 Y137.625 E0.11944
G1 X104.289 Y135.655 E0.11944
G1 X101.248 Y133.361 E0.11944
G1 X98.459 Y130.766 E0.11944
G1 X95.951 Y127.898 E0.11944
G1 X93.752 Y124.788 E0.11944
G1 X91.884 Y121.467 E0.11944
G1 X90.368 Y117.973 E0.11944
G1 X89.219 Y114.341 E0.11944
M73 Q5 S19
G1 X88.449 Y110.610 E0.11944
M73 P5 R19
G1 X88.067 Y106.820 E0.11944
G1 X88.077 Y103.010 E0.11944
G1 X88.478 Y99.222 E0.11944
G1 X89.267 Y95.495 E0.11944
G1 X90.435 Y91.869 E0.11944
G1 X91.969 Y88.382 E0.11944
G1 X93.854 Y85.071 E0.11944
G1 X95.989 Y82.086 E0.11507
G1 X96.419 Y82.095 F10800.000
G1 F8640
G1 X98.159 Y79.611 E-0.76000
G1 E-0.04000 F2100.00000
G1 Z0.800 F10800.000
G1 X94.025 Y121.651
G1 Z0.200
G1 E0.80000 F2100.00000
G1 F1200
G1 X91.655 Y119.281 E0.10545
G1 X91.244 Y118.336 E0.03243
G1 X93.149 Y120.240 E0.08474
G1 X92.699 Y119.255 E0.03409
G1 X90.895 Y117.451 E0.08027
G1 X90.647 Y116.668 E0.02583
G1 X92.248 Y118.269 E0.07126
G1 X92.115 Y117.978 E0.01006
G1 X91.926 Y117.412 E0.01878
G1 X90.399 Y115.885 E0.06796
G1 X90.152 Y115.102 E0.02583
G1 X91.658 Y116.609 E0.06705
G1 X91.390 Y115.806 E0.02664
G1 X89.904 Y114.319 E0.06614
G1 X89.858 Y114.174 E0.00479
G1 X89.745 Y113.625 E0.01764
G1 X91.122 Y115.003 E0.06130
G1 X90.923 Y114.407 E0.01975
G1 X90.885 Y114.230 E0.00571
G1 X89.606 Y112.951 E0.05691
G1 X89.466 Y112.277 E0.02166
G1 X90.734 Y113.545 E0.05642
G1 X90.584 Y112.859 E0.02207
G1 X89.327 Y111.602 E0.05593
G1 X89.188 Y110.928 E0.02166
G1 X90.434 Y112.174 E0.05544
G1 X90.284 Y111.489 E0.02207
G1 X89.079 Y110.284 E0.05361
G1 X89.019 Y109.689 E0.01882
G1 X90.134 Y110.804 E0.04960
G1 X90.059 Y110.194 E0.01934
G1 X88.959 Y109.094 E0.04893
G1 X88.899 Y108.499 E0.01882
G1 X89.993 Y109.593 E0.04867
G1 X89.927 Y108.992 E0.01902
G1 X88.839 Y107.904 E0.04841
G1 X88.779 Y107.309 E0.01882
G1 X89.861 Y108.391 E0.04814
G1 X89.796 Y107.790 E0.01902
G1 X88.727 Y106.721 E0.04754
G1 X88.728 Y106.187 E0.01679
G1 X89.730 Y107.189 E0.04455
G1 X89.708 Y106.987 E0.00640
G1 X89.707 Y106.630 E0.01120
G1 X88.730 Y105.654 E0.04346
G1 X88.731 Y105.120 E0.01679
G1 X89.705 Y106.094 E0.04334
G1 X89.704 Y105.557 E0.01688
G1 X88.733 Y104.586 E0.04321
G1 X88.734 Y104.052 E0.01679
G1 X89.702 Y105.021 E0.04309
G1 X89.701 Y104.484 E0.01688
G1 X88.735 Y103.519 E0.04296
G1 X88.742 Y102.991 E0.01662
G1 X89.699 Y103.948 E0.04259
G1 X89.698 Y103.411 E0.01688
G1 X88.794 Y102.507 E0.04024
G1 X88.845 Y102.023 E0.01531
G1 X89.730 Y102.908 E0.03939
G1 X89.781 Y102.423 E0.01533
G1 X88.896 Y101.539 E0.03936
G1 X88.947 Y101.055 E0.01531
G1 X89.831 Y101.939 E0.03932
G1 X89.882 Y101.454 E0.01533
G1 X88.999 Y100.571 E0.03929
G1 X89.050 Y100.087 E0.01531
G1 X89.932 Y100.970 E0.03925
G1 X89.983 Y100.485 E0.01533
G1 X89.101 Y99.604 E0.03922
G1 X89.131 Y99.325 E0.00881
G1 X89.171 Y99.138 E0.00603
G1 X90.033 Y100.000 E0.03839
G1 X90.084 Y99.516 E0.01533
G1 X89.264 Y98.696 E0.03647
G1 X89.357 Y98.254 E0.01420
G1 X90.174 Y99.071 E0.03635
G1 X90.268 Y98.630 E0.01419
G1 X89.451 Y97.813 E0.03638
G1 X89.544 Y97.371 E0.01420
G1 X90.363 Y98.189 E0.03641
G1 X90.457 Y97.748 E0.01419
G1 X89.638 Y96.929 E0.03644
G1 X89.731 Y96.488 E0.01420
G1 X90.551 Y97.307 E0.03647
G1 X90.645 Y96.866 E0.01419
G1 X89.825 Y96.046 E0.03650
G1 X89.906 Y95.665 E0.01227
G1 X89.923 Y95.610 E0.00183
G1 X90.739 Y96.425 E0.03630
G1 X90.833 Y95.984 E0.01419
G1 X90.054 Y95.205 E0.03469
G1 X90.184 Y94.800 E0.01338
G1 X90.949 Y95.565 E0.03404
G1 X91.081 Y95.162 E0.01334
G1 X90.314 Y94.395 E0.03412
G1 X90.445 Y93.990 E0.01338
G1 X91.213 Y94.759 E0.03420
G1 X91.345 Y94.356 E0.01334
G1 X90.575 Y93.586 E0.03428
G1 X90.706 Y93.181 E0.01338
G1 X91.478 Y93.953 E0.03435
G1 X91.610 Y93.550 E0.01334
G1 X90.836 Y92.776 E0.03443
G1 X90.966 Y92.371 E0.01338
G1 X91.742 Y93.147 E0.03451
G1 X91.874 Y92.744 E0.01334
G1 X91.108 Y91.978 E0.03409
G1 X91.271 Y91.606 E0.01277
G1 X92.006 Y92.341 E0.03269
G1 X92.162 Y91.962 E0.01290
G1 X91.435 Y91.235 E0.03235
G1 X91.598 Y90.863 E0.01277
G1 X92.328 Y91.593 E0.03247
G1 X92.494 Y91.224 E0.01273
G1 X91.762 Y90.492 E0.03258
G1 X91.926 Y90.120 E0.01277
G1 X92.660 Y90.855 E0.03270
G1 X92.827 Y90.486 E0.01273
G1 X92.089 Y89.748 E0.03282
G1 X92.253 Y89.377 E0.01277
G1 X92.993 Y90.117 E0.03294
G1 X93.159 Y89.748 E0.01273
G1 X92.416 Y89.005 E0.03306
G1 X92.560 Y88.679 E0.01122
G1 X92.583 Y88.637 E0.00151
G1 X93.325 Y89.379 E0.03301
G1 X93.492 Y89.010 E0.01273
G1 X92.778 Y88.296 E0.03177
G1 X92.972 Y87.955 E0.01235
G1 X93.670 Y88.654 E0.03107
G1 X93.868 Y88.316 E0.01231
G1 X93.166 Y87.614 E0.03123
G1 X93.360 Y87.273 E0.01235
G1 X94.065 Y87.979 E0.03138
G1 X94.263 Y87.641 E0.01231
G1 X93.554 Y86.932 E0.03154
G1 X93.748 Y86.591 E0.01235
G1 X94.461 Y87.304 E0.03169
G1 X94.658 Y86.966 E0.01231
G1 X93.942 Y86.250 E0.03185
G1 X94.137 Y85.909 E0.01235
G1 X94.856 Y86.629 E0.03201
G1 X95.053 Y86.291 E0.01231
G1 X94.331 Y85.568 E0.03216
G1 X94.411 Y85.428 E0.00510
G1 X94.542 Y85.244 E0.00708
G1 X95.251 Y85.954 E0.03156
G1 X95.449 Y85.616 E0.01231
G1 X94.765 Y84.932 E0.03043
G1 X94.988 Y84.620 E0.01207
G1 X95.669 Y85.301 E0.03031
G1 X95.896 Y84.994 E0.01204
G1 X95.211 Y84.308 E0.03050
G1 X95.434 Y83.996 E0.01207
G1 X96.124 Y84.686 E0.03069
G1 X96.351 Y84.378 E0.01204
G1 X95.657 Y83.684 E0.03088
G1 X95.880 Y83.372 E0.01207
G1 X96.579 Y84.070 E0.03107
G1 X96.806 Y83.763 E0.01204
G1 X96.103 Y83.060 E0.03127
G1 X96.326 Y82.748 E0.01207
G1 X97.033 Y83.455 E0.03146
G1 X97.261 Y83.147 E0.01204
G1 X96.549 Y82.436 E0.03165
G1 X96.796 Y82.147 E0.01194
G1 X97.488 Y82.839 E0.03081
G1 X97.715 Y82.532 E0.01204
G1 X97.047 Y81.863 E0.02975
G1 X97.298 Y81.579 E0.01193
G1 X97.969 Y82.250 E0.02988
G1 X98.225 Y81.971 E0.01192
G1 X97.549 Y81.295 E0.03011
G1 X97.800 Y81.011 E0.01193
